#define noname_width 340
#define noname_height 340
static char noname_bits[] = {
 0x00,0x00,0x00,0x00,0x00,0x00,0x00,0x00,0x00,0x00,0x00,0x00,0x00,0x00,0x00,
 0x00,0x00,0x00,0x00,0x00,0x00,0x00,0x00,0x00,0x00,0x00,0x00,0x00,0x00,0x00,
 0x00,0x00,0x00,0x00,0x00,0x00,0x00,0x00,0x00,0x00,0x00,0x00,0x00,0x00,0x00,
 0x00,0x00,0x00,0x00,0x00,0x00,0x00,0x00,0x00,0x00,0x00,0x00,0x00,0x00,0x00,
 0x00,0x00,0x00,0x00,0x00,0x00,0x00,0x00,0x00,0x00,0x00,0x00,0x00,0x00,0x00,
 0x00,0x00,0x00,0x00,0x00,0x00,0x00,0x00,0x00,0x00,0x00,0x00,0x00,0x00,0x00,
 0x00,0x00,0x00,0x00,0x00,0x00,0x00,0x00,0x00,0x00,0x00,0x00,0x00,0x00,0x00,
 0x00,0x00,0x00,0x00,0x00,0x00,0x00,0x00,0x00,0x00,0x00,0x00,0x00,0x40,0x00,
 0x80,0x00,0x00,0x00,0x40,0x00,0x00,0x00,0x00,0x00,0x00,0x40,0x40,0x08,0x49,
 0x44,0x84,0x10,0x42,0x88,0x90,0x04,0x21,0x02,0x00,0x20,0x02,0x44,0x40,0x24,
 0x22,0x89,0x00,0x80,0x88,0x88,0x88,0x08,0x11,0x49,0x08,0x04,0x10,0x11,0x20,
 0x22,0x00,0x04,0x20,0x22,0x04,0x01,0x24,0x91,0x04,0x02,0x00,0x00,0x00,0x00,
 0x00,0x00,0x00,0x00,0x00,0x00,0x10,0x49,0x02,0x10,0x00,0x02,0x00,0x00,0x00,
 0x44,0x02,0x00,0x00,0x00,0x00,0x00,0x00,0x40,0x00,0x02,0x00,0x04,0x00,0x09,
 0x00,0x02,0x00,0x20,0x00,0x00,0x00,0x00,0x00,0x21,0x00,0x00,0x00,0x42,0x00,
 0x01,0x02,0x20,0x04,0x00,0x00,0x00,0x80,0x00,0x08,0x00,0x00,0x00,0x00,0x10,
 0x00,0x00,0x00,0x00,0x00,0x00,0x01,0x10,0x00,0x00,0x00,0x00,0x80,0x10,0x00,
 0x80,0x00,0x00,0x00,0x00,0x00,0x10,0x00,0x80,0x10,0x11,0x00,0x04,0x00,0x00,
 0x00,0x80,0x00,0x00,0x40,0x00,0x10,0x80,0x40,0x08,0x20,0x00,0x00,0x22,0x22,
 0x42,0x10,0x42,0x00,0x00,0x00,0x40,0x88,0x80,0x08,0x00,0x00,0x80,0x00,0x00,
 0x00,0x00,0x04,0x80,0x00,0x00,0x11,0x00,0x00,0x00,0x00,0x48,0x20,0x02,0x00,
 0x40,0x00,0x08,0x02,0x00,0x00,0x08,0x00,0x04,0x20,0x00,0x00,0x00,0x00,0x02,
 0x00,0x10,0x10,0x01,0x01,0x00,0x00,0x00,0x00,0x00,0x11,0x10,0x08,0x02,0x88,
 0x20,0x12,0x00,0x04,0x00,0x04,0x00,0x08,0x10,0x00,0x00,0x40,0x10,0x04,0x22,
 0x00,0x20,0x82,0x00,0x00,0x42,0x00,0x01,0x21,0x00,0x00,0x00,0x80,0x00,0x02,
 0x00,0x00,0x08,0x00,0x08,0x40,0x12,0x02,0x00,0x00,0x00,0x00,0x00,0x00,0x00,
 0x44,0x00,0x00,0x00,0x08,0x01,0x81,0x00,0x04,0x08,0x02,0x00,0x00,0x01,0x00,
 0x00,0x40,0x00,0x00,0x00,0x00,0x00,0x84,0x80,0x10,0x00,0x20,0x00,0x02,0x20,
 0x00,0x22,0x00,0x02,0x00,0x20,0x00,0x02,0x41,0x00,0x00,0x00,0x00,0x00,0x20,
 0x44,0x40,0x00,0x00,0x00,0x00,0x80,0x00,0x00,0x01,0x00,0x40,0x00,0x10,0x04,
 0x42,0x00,0x10,0x04,0x08,0x00,0x04,0x00,0x08,0x08,0x40,0x40,0x04,0x00,0x00,
 0x41,0x00,0x80,0x00,0x02,0x00,0x00,0x00,0x10,0x04,0x01,0x00,0x01,0x00,0x00,
 0x40,0x40,0x00,0x88,0x00,0x00,0x00,0x40,0x08,0x08,0x88,0x00,0x00,0x00,0x10,
 0x02,0x40,0x80,0x00,0x00,0x02,0x01,0x00,0x00,0x00,0x00,0x82,0x00,0x00,0x20,
 0x00,0x00,0x40,0x20,0x04,0x01,0x00,0x20,0x48,0x00,0x00,0x01,0x02,0x01,0x04,
 0x04,0x00,0x08,0x00,0x08,0x00,0x00,0x00,0x00,0x00,0x01,0x10,0x00,0x80,0x00,
 0x00,0x08,0x20,0x00,0x40,0x80,0x04,0x08,0x00,0x10,0x00,0x08,0x00,0x11,0x08,
 0x00,0x00,0x00,0x00,0x80,0x00,0x00,0x12,0x10,0x00,0x10,0x00,0x00,0x40,0x02,
 0x00,0x20,0x41,0x08,0x81,0x00,0x01,0x08,0x80,0x00,0x42,0x00,0x00,0x02,0x20,
 0x02,0x40,0x00,0x02,0x00,0x00,0x40,0x00,0x48,0x00,0x04,0x00,0x00,0x11,0x08,
 0x10,0x00,0x04,0x00,0x00,0x00,0x00,0x48,0x00,0x08,0x00,0x00,0x20,0x20,0x01,
 0x00,0x00,0x00,0x00,0x20,0x00,0x08,0x00,0x00,0x04,0x04,0x20,0x00,0x00,0x08,
 0x04,0x00,0x20,0x41,0x02,0x00,0x00,0x00,0x00,0x80,0x00,0x00,0x81,0x00,0x00,
 0x00,0x08,0x00,0x80,0x04,0x00,0x40,0x80,0x88,0x04,0x00,0x02,0x04,0x00,0x01,
 0x10,0x24,0x00,0x81,0x00,0x04,0x00,0x20,0x40,0x00,0x01,0x80,0x00,0x00,0x20,
 0x00,0x00,0x00,0x04,0x01,0x84,0x40,0x04,0x20,0x00,0x00,0x00,0x02,0x40,0x40,
 0x22,0x00,0x40,0x00,0x00,0x00,0x00,0x00,0x00,0x00,0x00,0x04,0x20,0x00,0x00,
 0x02,0x00,0x00,0x20,0x08,0x00,0x00,0x00,0x80,0x08,0x00,0x20,0x00,0x01,0x08,
 0x10,0x00,0x00,0x00,0x00,0x00,0x04,0x02,0x00,0x40,0x00,0x00,0x00,0x00,0x11,
 0x00,0x02,0x04,0x11,0x00,0x40,0x12,0x00,0x80,0x00,0x00,0x82,0x00,0x00,0x20,
 0x80,0x00,0x01,0x01,0x02,0x08,0x08,0x00,0x20,0x02,0x08,0x10,0x00,0x80,0x20,
 0x90,0x10,0x08,0x40,0x00,0x40,0x44,0x08,0x00,0x04,0x02,0x00,0x00,0x00,0x10,
 0x00,0x00,0x21,0x00,0x80,0x08,0x10,0x20,0x04,0x00,0x80,0x10,0x04,0x12,0x00,
 0x00,0x00,0x10,0x01,0x00,0x00,0x01,0x80,0x00,0x80,0x80,0x00,0x00,0x00,0x00,
 0x00,0x01,0x00,0x00,0x00,0x00,0x00,0x00,0x00,0x08,0x00,0x11,0x00,0x01,0x00,
 0x00,0x08,0x00,0x00,0x01,0x00,0x00,0x10,0x10,0x00,0x00,0x00,0x08,0x20,0x48,
 0x00,0x80,0x40,0x20,0x00,0x08,0x40,0x00,0x00,0x04,0x04,0x02,0x00,0x02,0x08,
 0x00,0x11,0x00,0x01,0x00,0x20,0x10,0x01,0x04,0x00,0x00,0x10,0x04,0x08,0x01,
 0x00,0x40,0x00,0x02,0x20,0x00,0x02,0x80,0x00,0x00,0x00,0x00,0x00,0x00,0x00,
 0x00,0x02,0x08,0x00,0x00,0x02,0x04,0x00,0x00,0x00,0x49,0x20,0x80,0x24,0x00,
 0x01,0x90,0x00,0x00,0x00,0x80,0x20,0x80,0x04,0x80,0x80,0x00,0x20,0x22,0x04,
 0x00,0x00,0x02,0x02,0x00,0x08,0x00,0x01,0x81,0x04,0x01,0x44,0x10,0x08,0x00,
 0x00,0x01,0x08,0x20,0x20,0x80,0x80,0x20,0x00,0x00,0x00,0x00,0x00,0x20,0x00,
 0x00,0x08,0x01,0x00,0x00,0x02,0x20,0x00,0x00,0x00,0x00,0x00,0x00,0x24,0x10,
 0x00,0x40,0x80,0x00,0x24,0x08,0x00,0x00,0x00,0x00,0x00,0x00,0x80,0x00,0x20,
 0x01,0x00,0x00,0x08,0x10,0x00,0x38,0x08,0x00,0x00,0x04,0x00,0x00,0x04,0x00,
 0x40,0x10,0x00,0x00,0x00,0x09,0x10,0x40,0x00,0x80,0x00,0x00,0x40,0x08,0x00,
 0x00,0x20,0x00,0x00,0x10,0x20,0x90,0x00,0x04,0x82,0x10,0x40,0x00,0x80,0x00,
 0x01,0x01,0x00,0x04,0x54,0x01,0x49,0x00,0x40,0x84,0x08,0x00,0x00,0x08,0x00,
 0x00,0x08,0x00,0x00,0x00,0x01,0x82,0x00,0x88,0x00,0x01,0x40,0x08,0x12,0x00,
 0x00,0x40,0x00,0x00,0x00,0x10,0x40,0x00,0x00,0x04,0x04,0x00,0x04,0x00,0x00,
 0x01,0x80,0x7a,0x01,0x00,0x22,0x00,0x00,0x40,0x00,0x80,0x00,0x02,0x92,0x80,
 0x08,0x00,0x02,0x08,0x00,0x10,0x00,0x00,0x00,0x00,0x00,0x00,0x02,0x02,0x02,
 0x42,0x04,0x02,0x80,0x00,0x10,0x02,0x00,0x00,0x10,0x00,0x20,0x20,0x00,0x00,
 0xd6,0x00,0x00,0x00,0x02,0x00,0x00,0x00,0x04,0x00,0x20,0x00,0x00,0x00,0x10,
 0x40,0x00,0x10,0x00,0x00,0x08,0x08,0x02,0x82,0x00,0x00,0x10,0x00,0x00,0x00,
 0x00,0x01,0x10,0x00,0x40,0x00,0x20,0x02,0x10,0x01,0x00,0x48,0x88,0x7a,0x08,
 0x00,0x00,0x10,0x08,0x02,0x00,0x00,0x00,0x00,0x00,0x00,0x00,0x81,0x00,0x80,
 0x00,0x04,0x44,0x80,0x00,0x00,0x00,0x00,0x40,0x00,0x10,0x00,0x40,0x20,0x00,
 0x00,0x00,0x00,0x40,0x02,0x00,0x01,0x08,0x04,0x00,0x00,0x6d,0x80,0x88,0x10,
 0x00,0x41,0x00,0x02,0x10,0x49,0x00,0x00,0x89,0x10,0x00,0x08,0x00,0x00,0x40,
 0x00,0x00,0x40,0x10,0x10,0x48,0x08,0x80,0x00,0x08,0x01,0x00,0x08,0x02,0x41,
 0x08,0x02,0x00,0x00,0x00,0x80,0x80,0x00,0xa2,0x1e,0x00,0x00,0x80,0x00,0x00,
 0x10,0x00,0x00,0x00,0x10,0x22,0x00,0x00,0x00,0x00,0x10,0x88,0x00,0x00,0x08,
 0x00,0x80,0x00,0x00,0x00,0x04,0x00,0x01,0x08,0x08,0x00,0x00,0x08,0x00,0x08,
 0x80,0x20,0x40,0x00,0x00,0x00,0x80,0x1b,0x11,0x00,0x00,0x00,0x00,0x00,0x00,
 0x00,0x00,0x02,0x00,0x00,0x04,0x09,0x40,0x02,0x00,0x10,0x88,0x80,0x04,0x00,
 0x00,0x01,0x02,0x00,0x04,0x00,0x80,0x80,0x40,0x10,0x00,0x42,0x00,0x04,0x00,
 0x02,0x00,0x08,0x12,0xd0,0x06,0x00,0x21,0x02,0x24,0x08,0x82,0x00,0x42,0x00,
 0x80,0x00,0x40,0x00,0x80,0x04,0x00,0x02,0x00,0x01,0x00,0x00,0x04,0x08,0x00,
 0x80,0x40,0x20,0x40,0x00,0x00,0x00,0x00,0x00,0x00,0x80,0x00,0x04,0x00,0x48,
 0x00,0x80,0x60,0x17,0x00,0x00,0x20,0x00,0x01,0x00,0x00,0x00,0x22,0x00,0x08,
 0x01,0x20,0x00,0x00,0x40,0x20,0x02,0x00,0x10,0x20,0x00,0x40,0x10,0x00,0x00,
 0x00,0x02,0x00,0x00,0x02,0x82,0x20,0x00,0x00,0x20,0x80,0x10,0x01,0x20,0x00,
 0xd4,0x05,0x04,0x08,0x00,0x00,0x40,0x10,0x00,0x00,0x00,0x08,0x00,0x08,0x00,
 0x00,0x00,0x00,0x00,0x00,0x00,0x02,0x80,0x20,0x01,0x80,0x10,0x10,0x00,0x00,
 0x48,0x24,0x20,0x00,0x00,0x10,0x10,0x00,0x00,0x00,0x00,0x02,0x00,0xa8,0x82,
 0x80,0x80,0x00,0x02,0x00,0x00,0x02,0x08,0x00,0x01,0x40,0x80,0x00,0x22,0x48,
 0x04,0x00,0x20,0x24,0x00,0x01,0x00,0x00,0x04,0x00,0x01,0x01,0x88,0x00,0x00,
 0x00,0x20,0x04,0x81,0x00,0x02,0x11,0x00,0x00,0x00,0x11,0xe8,0x01,0x00,0x00,
 0x04,0x20,0x08,0x04,0x00,0x80,0x10,0x80,0x04,0x00,0x10,0x00,0x00,0x00,0x08,
 0x01,0x00,0x00,0x00,0x04,0x10,0x00,0x00,0x00,0x90,0x00,0x00,0x80,0x80,0x00,
 0x00,0x00,0x02,0x00,0x00,0x42,0x40,0x00,0x00,0xf4,0x09,0x10,0x00,0x80,0x00,
 0x00,0x00,0x00,0x00,0x00,0x00,0x00,0x20,0x04,0x00,0x01,0x90,0x00,0x08,0x00,
 0x08,0x04,0x00,0x80,0x00,0x42,0x00,0x00,0x00,0x00,0x01,0x04,0x04,0x20,0x00,
 0x20,0x10,0x00,0x00,0x02,0x24,0x80,0x2e,0x00,0x00,0x11,0x00,0x00,0x41,0x40,
 0x00,0x00,0x02,0x10,0x00,0x04,0x80,0x08,0x00,0x01,0x20,0x00,0x02,0x41,0x40,
 0x40,0x02,0x40,0x00,0x90,0x00,0x20,0x24,0x00,0x00,0x00,0x01,0x10,0x00,0x01,
 0x04,0x08,0x00,0x00,0x04,0x7a,0x41,0x02,0x00,0x21,0x10,0x00,0x00,0x00,0x04,
 0x20,0x02,0x88,0x00,0x00,0x00,0x10,0x00,0x00,0x00,0x10,0x00,0x00,0x00,0x00,
 0x00,0x10,0x00,0x04,0x01,0x00,0x08,0x00,0x00,0x00,0x02,0x00,0x80,0x20,0x00,
 0x08,0x00,0xa0,0x2d,0x00,0x20,0x00,0x00,0x02,0x08,0x02,0x02,0x40,0x00,0x00,
 0x01,0x00,0x01,0x80,0x00,0x00,0x04,0x42,0x00,0x00,0x01,0x08,0x20,0x08,0x00,
 0x04,0x00,0x80,0x00,0x00,0x21,0x21,0x10,0x80,0x08,0x08,0x00,0x80,0x40,0x02,
 0x00,0xbb,0x08,0x00,0x04,0x04,0x00,0x00,0x20,0x00,0x00,0x00,0x00,0x00,0x00,
 0x10,0x02,0x04,0x12,0x00,0x00,0x00,0x04,0x88,0x00,0x00,0x81,0x00,0x00,0x20,
 0x08,0x80,0x00,0x00,0x00,0x80,0x00,0x00,0x00,0x80,0x00,0x00,0x90,0xa0,0x06,
 0x00,0x00,0x20,0x00,0x40,0x40,0x00,0x00,0x00,0x88,0x20,0x20,0x20,0x00,0x10,
 0x00,0x80,0x40,0x00,0x84,0x00,0x00,0x80,0x04,0x00,0x84,0x00,0x01,0x00,0x10,
 0x20,0x04,0x04,0x02,0x00,0x00,0x01,0x00,0x10,0x00,0x00,0xa0,0x1d,0x00,0x12,
 0x00,0x20,0x01,0x02,0x00,0x00,0x84,0x00,0x00,0x00,0x01,0x04,0x00,0x40,0x00,
 0x00,0x84,0x00,0x20,0x00,0x04,0x00,0x00,0x00,0x08,0x00,0x01,0x02,0x04,0x00,
 0x00,0x00,0x08,0x11,0x20,0x09,0x00,0x01,0x00,0x64,0x07,0x21,0x80,0x00,0x00,
 0x08,0x00,0x22,0x01,0x00,0x00,0x04,0x04,0x08,0x80,0x00,0x01,0x00,0x08,0x00,
 0x00,0x00,0x20,0x00,0x40,0x20,0x10,0x20,0x10,0x00,0x00,0x00,0x40,0x80,0x20,
 0x00,0x00,0x00,0x00,0x04,0x48,0x04,0xa8,0x07,0x00,0x00,0x08,0x02,0x00,0x10,
 0x00,0x00,0x20,0x20,0x40,0x00,0x80,0x00,0x00,0x08,0x04,0x80,0x20,0x10,0x02,
 0x01,0x20,0x00,0x02,0x00,0x00,0x00,0x48,0x40,0x80,0x00,0x10,0x00,0x41,0x00,
 0x02,0x40,0x00,0x00,0x20,0xe8,0x40,0x00,0x00,0x40,0x00,0x00,0x00,0x00,0x00,
 0x00,0x04,0x00,0x40,0x00,0x00,0x24,0x00,0x00,0x01,0x00,0x00,0x00,0x00,0x02,
 0x08,0x00,0x01,0x02,0x04,0x00,0x00,0x00,0x08,0x02,0x04,0x00,0x40,0x00,0x00,
 0x40,0x00,0x00,0xb2,0x05,0x88,0x44,0x00,0x20,0x42,0x82,0x08,0x00,0x08,0x00,
 0x02,0x08,0x00,0x44,0x00,0x40,0x20,0x10,0x04,0x82,0x10,0x04,0x00,0x01,0x00,
 0x40,0x80,0x40,0x00,0x02,0x12,0x00,0x00,0x00,0x08,0x04,0x90,0x08,0x00,0x00,
 0x01,0x6c,0x01,0x00,0x00,0x02,0x00,0x00,0x00,0x40,0x04,0x00,0x00,0x10,0x01,
 0x48,0x00,0x00,0x02,0x00,0x00,0x00,0x00,0x00,0x40,0x08,0x00,0x21,0x08,0x00,
 0x00,0x02,0x20,0x00,0x20,0x00,0x40,0x00,0x00,0x00,0x80,0x08,0x22,0x80,0x74,
 0x11,0x00,0x00,0x00,0x04,0x08,0x10,0x00,0x00,0x80,0x10,0x00,0x00,0x01,0x00,
 0x00,0x00,0x01,0x00,0x40,0x10,0x40,0x00,0x00,0x10,0x00,0x00,0x08,0x00,0x10,
 0x00,0x00,0x01,0x48,0x00,0x40,0x80,0x00,0x00,0x00,0x00,0x08,0x5e,0x80,0x10,
 0x08,0x10,0x40,0x00,0x00,0x02,0x00,0x00,0x80,0x00,0x00,0x00,0x10,0x44,0x10,
 0x10,0x44,0x02,0x00,0x04,0x00,0x80,0x00,0x08,0x01,0x00,0x10,0x00,0x81,0x00,
 0x00,0x01,0x08,0x02,0x10,0x08,0x02,0x40,0x00,0x00,0xf5,0x00,0x00,0x81,0x80,
 0x00,0x00,0x01,0x00,0x00,0x04,0x04,0x40,0x08,0x80,0x80,0x00,0x00,0x80,0x00,
 0x10,0x00,0x00,0x12,0x01,0x00,0x00,0x20,0x21,0x01,0x00,0x08,0x24,0x00,0x00,
 0x02,0x00,0x02,0x00,0x10,0x02,0x84,0x40,0x1b,0x00,0x02,0x00,0x00,0x08,0x20,
 0x20,0x90,0x00,0x40,0x00,0x08,0x40,0x08,0x00,0x00,0x82,0x00,0x00,0x00,0x84,
 0x00,0x00,0x10,0x08,0x01,0x00,0x00,0x80,0x04,0x00,0x00,0x20,0x00,0x40,0x20,
 0x00,0x40,0x00,0x00,0x00,0x80,0x1e,0x20,0x00,0x00,0x04,0x00,0x04,0x04,0x00,
 0x00,0x00,0x00,0x00,0x00,0x00,0x04,0x10,0x00,0x04,0x00,0x00,0x00,0x48,0x00,
 0x00,0x00,0x20,0x04,0x00,0x00,0x20,0x00,0x00,0x01,0x44,0x00,0x00,0x40,0x00,
 0x00,0x10,0x20,0xe4,0x05,0x02,0x10,0x04,0x00,0x41,0x00,0x00,0x01,0x04,0x00,
 0x00,0x01,0x02,0x40,0x00,0x00,0x08,0x00,0x48,0x84,0x10,0x00,0x40,0x00,0x42,
 0x00,0x00,0x08,0x10,0x00,0x81,0x00,0x04,0x00,0x00,0x08,0x00,0x08,0x08,0x01,
 0x02,0x50,0x17,0x00,0x80,0x80,0x20,0x00,0x00,0x00,0x00,0x00,0x44,0x12,0x20,
 0x80,0x00,0x20,0x02,0x00,0x20,0x00,0x00,0x00,0x01,0x04,0x22,0x00,0x04,0x41,
 0x40,0x02,0x00,0x08,0x04,0x40,0x00,0x08,0x81,0x04,0x82,0x00,0x00,0x00,0xe0,
 0x02,0x40,0x04,0x20,0x00,0x00,0x88,0x10,0x24,0x00,0x00,0x00,0x00,0x10,0x08,
 0x01,0x80,0x00,0x01,0x01,0x00,0x00,0x00,0x00,0x00,0x00,0x00,0x00,0x00,0x80,
 0x08,0x00,0x40,0x00,0x08,0x01,0x00,0x00,0x00,0x40,0x40,0x80,0xa8,0x85,0x08,
 0x00,0x00,0x04,0x10,0x01,0x00,0x00,0x00,0x00,0x80,0x08,0x00,0x00,0x00,0x00,
 0x10,0x00,0x80,0x10,0x01,0x88,0x00,0x00,0x04,0x20,0x10,0x02,0x00,0x00,0x00,
 0x00,0x00,0x00,0x00,0x00,0x20,0x00,0x00,0x04,0x04,0xfa,0x01,0x00,0x00,0x02,
 0x80,0x00,0x00,0x80,0x80,0x00,0x10,0x00,0x00,0x02,0x00,0x10,0x11,0x02,0x10,
 0x10,0x00,0x90,0x00,0x40,0x84,0x40,0x02,0x00,0x00,0x00,0x20,0x02,0x01,0x10,
 0x21,0x40,0x44,0x00,0x40,0x08,0x00,0x00,0x50,0x01,0x00,0x21,0x00,0x00,0x02,
 0x20,0x08,0x00,0x00,0x80,0x08,0x00,0x20,0x21,0x00,0x00,0x00,0x02,0x00,0x04,
 0x00,0x00,0x04,0x00,0x00,0x00,0x02,0x10,0x09,0x02,0x10,0x08,0x01,0x00,0x04,
 0x00,0x02,0x01,0x00,0x80,0x20,0x7e,0x11,0x02,0x00,0x10,0x10,0x40,0x00,0x01,
 0x08,0x04,0x00,0x00,0x82,0x00,0x00,0x02,0x00,0x40,0x00,0x02,0x80,0x00,0x40,
 0x00,0x10,0x00,0x00,0x00,0x01,0x40,0x00,0x00,0x00,0x00,0x00,0x00,0x00,0x00,
 0x08,0x01,0x11,0x00,0x6a,0x00,0x20,0x80,0x00,0x02,0x00,0x04,0x40,0x00,0x00,
 0x04,0x40,0x10,0x00,0x08,0x20,0x44,0x00,0x40,0x40,0x00,0x04,0x02,0x00,0x00,
 0x22,0x24,0x10,0x00,0x00,0x80,0x00,0x40,0x20,0x84,0x00,0x21,0x10,0x00,0x10,
 0x00,0x84,0x5e,0x80,0x00,0x02,0x00,0x00,0x08,0x00,0x00,0x42,0x00,0x00,0x04,
 0x00,0x10,0x00,0x00,0x00,0x08,0x00,0x08,0x00,0x40,0x00,0x20,0x01,0x00,0x00,
 0x00,0x40,0x00,0x00,0x80,0x04,0x04,0x00,0x20,0x00,0x00,0x00,0x00,0x00,0x00,
 0x35,0x08,0x00,0x00,0x88,0x80,0x00,0x40,0x00,0x00,0x00,0x20,0x00,0x00,0x82,
 0x80,0x00,0x01,0x00,0x09,0x00,0x12,0x00,0x88,0x00,0x20,0x00,0x00,0x01,0x02,
 0x02,0x09,0x04,0x00,0x00,0x00,0x00,0x00,0x41,0x20,0x00,0x42,0xa0,0x1f,0x00,
 0x08,0x08,0x00,0x08,0x40,0x00,0x02,0x00,0x00,0x00,0x00,0x00,0x00,0x00,0x10,
 0x00,0x01,0x00,0x00,0x00,0x01,0x00,0x04,0x00,0x10,0x02,0x40,0x00,0x20,0x00,
 0x00,0x00,0x80,0x44,0x04,0x10,0x00,0x04,0x44,0x00,0x40,0x15,0x01,0x80,0x00,
 0x01,0x00,0x02,0x08,0x90,0x10,0x02,0x80,0x48,0x12,0x00,0x04,0x00,0x10,0x10,
 0x80,0x20,0x00,0x08,0x00,0x00,0x82,0x00,0x10,0x08,0x10,0x00,0x40,0x10,0x88,
 0x00,0x00,0x40,0x04,0x08,0x00,0x00,0x00,0xa2,0x07,0x90,0x00,0x00,0x10,0x00,
 0x00,0x00,0x00,0x00,0x00,0x08,0x00,0x80,0x10,0x20,0x04,0x00,0x00,0x00,0x00,
 0x00,0x00,0x22,0x40,0x00,0x40,0x00,0x00,0x00,0x00,0x00,0x00,0x01,0x10,0x00,
 0x00,0x00,0x00,0x00,0x01,0x20,0x60,0x0b,0x00,0x00,0x40,0x00,0x22,0x20,0x82,
 0x00,0x40,0x00,0x00,0x00,0x00,0x80,0x00,0x40,0x02,0x82,0x08,0x04,0x09,0x40,
 0x00,0x00,0x10,0x04,0x40,0x00,0x81,0x84,0x08,0x02,0x00,0x00,0x10,0x01,0x40,
 0x40,0x08,0x10,0x01,0xdc,0x41,0x00,0x44,0x04,0x04,0x00,0x00,0x00,0x00,0x01,
 0x00,0x00,0x02,0x00,0x00,0x80,0x00,0x40,0x00,0x00,0x00,0x40,0x02,0x00,0x12,
 0x00,0x00,0x04,0x02,0x00,0x00,0x00,0x00,0x20,0x02,0x02,0x10,0x01,0x04,0x00,
 0x00,0x04,0x68,0x05,0x08,0x00,0x00,0x40,0x00,0x04,0x10,0x24,0x00,0x01,0x08,
 0x10,0x21,0x02,0x00,0x00,0x00,0x10,0x20,0x20,0x00,0x00,0x00,0x00,0x81,0x00,
 0x00,0x10,0x08,0x00,0x40,0x10,0x00,0x20,0x00,0x00,0x00,0x00,0x41,0x00,0x40,
 0xba,0x00,0x40,0x00,0x00,0x00,0x88,0x40,0x00,0x00,0x08,0x00,0x40,0x00,0x00,
 0x20,0x08,0x24,0x00,0x00,0x02,0x02,0x00,0x20,0x48,0x00,0x00,0x80,0x00,0x00,
 0x00,0x40,0x04,0x80,0x04,0x00,0x40,0x00,0x48,0x00,0x00,0x08,0x00,0xe8,0x02,
 0x01,0x10,0x21,0x01,0x00,0x00,0x80,0x00,0x00,0x00,0x00,0x00,0x08,0x00,0x01,
 0x00,0x09,0x01,0x00,0x00,0x01,0x00,0x01,0x00,0x04,0x04,0x88,0x80,0x20,0x09,
 0x00,0x00,0x80,0x00,0x00,0x02,0x00,0x24,0x08,0x40,0x80,0x36,0x10,0x00,0x02,
 0x00,0x10,0x01,0x00,0x02,0x80,0x00,0x00,0x00,0x84,0x00,0x00,0x40,0x00,0x00,
 0x40,0x10,0x08,0x10,0x09,0x00,0x48,0x20,0x00,0x00,0x00,0x00,0x00,0x00,0x04,
 0x00,0x10,0x09,0x20,0x01,0x00,0x00,0x01,0x10,0xfd,0x00,0x10,0x00,0x04,0x00,
 0x00,0x22,0x00,0x10,0x40,0x02,0x04,0x00,0x80,0x04,0x00,0x00,0x40,0x00,0x80,
 0x00,0x00,0x00,0x80,0x00,0x00,0x10,0x02,0x04,0x02,0x00,0x22,0x00,0x08,0x00,
 0x00,0x00,0x00,0x00,0x00,0x00,0x82,0x16,0x00,0x00,0x00,0x00,0x02,0x08,0x00,
 0x10,0x02,0x04,0x00,0x80,0x10,0x00,0x40,0x00,0x44,0x00,0x08,0x00,0x80,0x00,
 0x40,0x10,0x00,0x00,0x01,0x20,0x20,0x00,0x20,0x80,0x20,0x01,0x02,0x80,0x00,
 0x40,0x02,0x22,0x10,0x40,0x3b,0x20,0x02,0x81,0x40,0x00,0x40,0x00,0x01,0x00,
 0x00,0x00,0x00,0x00,0x09,0x00,0x22,0x00,0x02,0x80,0x04,0x00,0x44,0x00,0x00,
 0x80,0x00,0x80,0x00,0x00,0x10,0x01,0x00,0x00,0x40,0x40,0x00,0x04,0x02,0x10,
 0x00,0x00,0xa0,0x0d,0x02,0x00,0x08,0x00,0x90,0x00,0x08,0x80,0x40,0x00,0x00,
 0x10,0x00,0x00,0x00,0x00,0x00,0x10,0x00,0x00,0x10,0x00,0x04,0x02,0x11,0x24,
 0x00,0x00,0x81,0x00,0x00,0x01,0x04,0x00,0x00,0x10,0x40,0x00,0x00,0x00,0x82,
 0x40,0x17,0x00,0x40,0x00,0x08,0x00,0x00,0x00,0x08,0x00,0x10,0x01,0x00,0x01,
 0x40,0x02,0x00,0x11,0x80,0x10,0x20,0x01,0x00,0x00,0x00,0x00,0x00,0x12,0x00,
 0x00,0x00,0x00,0x08,0x00,0x04,0x08,0x02,0x00,0x10,0x80,0x00,0x00,0xa4,0x05,
 0x40,0x04,0x00,0x00,0x01,0x84,0x00,0x00,0x08,0x02,0x00,0x00,0x88,0x00,0x90,
 0x10,0x00,0x00,0x00,0x00,0x00,0x11,0x40,0x20,0x00,0x00,0x00,0x10,0x08,0x44,
 0x24,0x00,0x80,0x00,0x00,0x00,0x02,0x00,0x04,0x48,0x10,0xd0,0x87,0x08,0x00,
 0x20,0x21,0x00,0x00,0x20,0x01,0x00,0x00,0x00,0x04,0x00,0x04,0x00,0x00,0x80,
 0x00,0x02,0x01,0x00,0x80,0x00,0x00,0x84,0x00,0x00,0x01,0x00,0x00,0x00,0x40,
 0x10,0x20,0x41,0x40,0x10,0x82,0x00,0x00,0x00,0xb8,0x00,0x00,0x80,0x00,0x00,
 0x88,0x20,0x04,0x90,0x00,0x40,0x00,0x40,0x00,0x00,0x00,0x02,0x04,0x20,0x00,
 0x08,0x24,0x00,0x08,0x04,0x00,0x20,0x01,0x00,0x81,0x00,0x00,0x02,0x02,0x00,
 0x00,0x00,0x00,0x00,0x40,0x00,0x02,0xea,0x13,0x80,0x10,0x04,0x00,0x00,0x00,
 0x00,0x00,0x20,0x01,0x02,0x00,0x20,0x20,0x02,0x20,0x00,0x02,0x10,0x40,0x00,
 0x00,0x00,0x40,0x20,0x00,0x08,0x20,0x00,0x10,0x00,0x00,0x00,0x02,0x10,0x04,
 0x80,0x20,0x00,0x02,0x20,0x5a,0x00,0x02,0x00,0x00,0x84,0x00,0x04,0x00,0x00,
 0x04,0x08,0x00,0x00,0x04,0x00,0x00,0x00,0x20,0x00,0x00,0x00,0x00,0x24,0x00,
 0x01,0x00,0x04,0x40,0x04,0x20,0x00,0x44,0x10,0x00,0x00,0x00,0x00,0x02,0x00,
 0x08,0x40,0x80,0xec,0x00,0x00,0x02,0x80,0x00,0x40,0x00,0x81,0x08,0x00,0x00,
 0x00,0x08,0x00,0x01,0x10,0x00,0x01,0x20,0x81,0x00,0x40,0x00,0x11,0x10,0x02,
 0x00,0x00,0x00,0x04,0x82,0x00,0x00,0x88,0x90,0x00,0x21,0x10,0x08,0x00,0x00,
 0x00,0x1b,0x20,0x10,0x40,0x08,0x00,0x04,0x00,0x08,0x40,0x00,0x00,0x00,0x00,
 0x01,0x88,0x00,0x12,0x00,0x01,0x00,0x10,0x08,0x00,0x00,0x00,0x00,0x20,0x02,
 0x00,0x00,0x00,0x00,0x02,0x01,0x00,0x08,0x00,0x00,0x00,0x81,0x08,0x84,0x7c,
 0x04,0x00,0x00,0x00,0x40,0x00,0x20,0x00,0x00,0x00,0x02,0x01,0x00,0x10,0x00,
 0x40,0x00,0x08,0x08,0x08,0x80,0x00,0x00,0x00,0x00,0x48,0x00,0x00,0x21,0x00,
 0x10,0x10,0x40,0x00,0x00,0x00,0x00,0x00,0x01,0x00,0x00,0xa0,0x17,0x00,0x01,
 0x04,0x02,0x09,0x80,0x00,0x00,0x01,0x12,0x10,0x00,0x42,0x00,0x00,0x04,0x40,
 0x00,0x00,0x00,0x02,0x00,0x24,0x84,0x84,0x00,0x04,0x20,0x00,0x11,0x01,0x00,
 0x00,0x20,0x04,0x80,0x10,0x04,0x00,0x10,0x80,0x00,0x1d,0x00,0x80,0x00,0x00,
 0x00,0x10,0x04,0x21,0x10,0x00,0x00,0x00,0x00,0x80,0x20,0x00,0x00,0x00,0x80,
 0x40,0x00,0x10,0x01,0x00,0x00,0x00,0x40,0x00,0x00,0x00,0x80,0x80,0x08,0x00,
 0x20,0x01,0x80,0x20,0x10,0x00,0x02,0xe8,0x07,0x11,0x08,0x20,0x10,0x00,0x01,
 0x00,0x00,0x00,0x80,0x00,0x02,0x08,0x08,0x04,0x00,0x02,0x42,0x02,0x00,0x20,
 0x02,0x00,0x10,0x10,0x00,0x00,0x04,0x10,0x00,0x00,0x08,0x00,0x04,0x00,0x10,
 0x02,0x00,0x00,0x04,0x10,0x40,0x15,0x00,0x00,0x00,0x00,0x00,0x00,0x10,0x00,
 0x00,0x01,0x40,0x00,0x00,0x01,0x00,0x11,0x00,0x00,0x10,0x04,0x00,0x00,0x40,
 0x00,0x00,0x49,0x08,0x40,0x02,0x20,0x12,0x00,0x00,0x40,0x00,0x00,0x00,0x00,
 0x41,0x40,0x00,0xe9,0x05,0x80,0x00,0x81,0x40,0x24,0x40,0x00,0x82,0x00,0x08,
 0x04,0x00,0x00,0x00,0x00,0x00,0x40,0x08,0x00,0x00,0x04,0x00,0x00,0x00,0x01,
 0x00,0x00,0x00,0x40,0x04,0x00,0x00,0x82,0x00,0x08,0x00,0x20,0x08,0x00,0x00,
 0x00,0x50,0x03,0x04,0x20,0x08,0x04,0x00,0x08,0x00,0x10,0x24,0x00,0x00,0x00,
 0x20,0x20,0x10,0x80,0x08,0x00,0x80,0x20,0x80,0x48,0x04,0x01,0x00,0x00,0x82,
 0x00,0x00,0x00,0x80,0x10,0x10,0x00,0x42,0x44,0x00,0x00,0x08,0x08,0x00,0xec,
 0x41,0x00,0x02,0x00,0x00,0x00,0x00,0x42,0x00,0x00,0x40,0x00,0x01,0x00,0x00,
 0x02,0x04,0x00,0x40,0x04,0x00,0x00,0x00,0x00,0x20,0x90,0x00,0x00,0x24,0x00,
 0x80,0x00,0x00,0x00,0x24,0x00,0x00,0x04,0x81,0x00,0x01,0x48,0xb2,0x01,0x40,
 0x00,0x00,0x00,0x01,0x01,0x00,0x00,0x00,0x04,0x20,0x00,0x04,0x01,0x00,0x00,
 0x00,0x01,0x00,0x04,0x11,0x00,0x20,0x00,0x00,0x44,0x20,0x00,0x02,0x01,0x04,
 0x82,0x00,0x00,0x00,0x00,0x00,0x00,0x00,0x40,0x00,0x7e,0x08,0x00,0x80,0x20,
 0x10,0x08,0x20,0x10,0x40,0x40,0x00,0x01,0x00,0x00,0x44,0x80,0x20,0x02,0x00,
 0x20,0x00,0x00,0x00,0x02,0x08,0x02,0x00,0x00,0x00,0x20,0x10,0x20,0x00,0x00,
 0x00,0x00,0x11,0x20,0x20,0x10,0x00,0x01,0x6a,0x00,0x08,0x10,0x00,0x02,0x00,
 0x04,0x00,0x08,0x08,0x10,0x00,0x00,0x00,0x00,0x08,0x00,0x10,0x08,0x01,0x20,
 0x80,0x44,0x00,0x00,0x00,0x00,0x02,0x00,0x00,0x00,0x00,0x10,0x24,0x40,0x04,
 0x80,0x00,0x02,0x02,0x04,0xc0,0x1e,0x40,0x00,0x01,0x04,0x00,0x40,0x00,0x81,
 0x00,0x00,0x00,0x84,0x00,0x40,0x00,0x00,0x04,0x00,0x00,0x00,0x02,0x04,0x00,
 0x00,0x41,0x88,0x10,0x00,0x22,0x41,0x85,0x00,0x00,0x00,0x09,0x20,0x00,0x00,
 0x00,0x80,0x00,0x08,0x55,0x02,0x21,0x00,0x00,0x20,0x02,0x00,0x00,0x00,0x01,
 0x01,0x00,0x00,0x08,0x20,0x02,0x80,0x80,0x40,0x40,0x00,0x00,0x00,0x08,0x00,
 0x00,0x00,0x10,0x00,0x08,0x00,0x40,0x04,0x00,0x00,0x00,0x00,0x04,0x00,0x00,
 0x00,0xa0,0x17,0x00,0x00,0x40,0x20,0x00,0x00,0x10,0x08,0x00,0x00,0x20,0x20,
 0x04,0x00,0x02,0x80,0x00,0x00,0x00,0x08,0x40,0x40,0x10,0x00,0x08,0x00,0x02,
 0x01,0x00,0x40,0x12,0x08,0x00,0x02,0x00,0x01,0x24,0x40,0x22,0x01,0x88,0xa0,
 0x0d,0x10,0x00,0x08,0x00,0x04,0x10,0x01,0x00,0x24,0x20,0x00,0x02,0x00,0x00,
 0x00,0x00,0x08,0x04,0x02,0x00,0x00,0x00,0x80,0x20,0x80,0x20,0x00,0x80,0x00,
 0x90,0x04,0x00,0x20,0x20,0x00,0x40,0x00,0x00,0x00,0x08,0x00,0xa0,0x07,0x00,
 0x04,0x01,0x02,0x81,0x00,0x80,0x40,0x00,0x02,0x02,0x00,0x00,0x02,0x40,0x10,
 0x00,0x20,0x10,0x00,0x08,0x08,0x02,0x00,0x00,0x04,0x20,0x04,0x48,0x44,0x05,
 0x02,0x01,0x00,0x22,0x08,0x00,0x02,0x00,0x00,0x01,0xd4,0x05,0x02,0x00,0x00,
 0x00,0x00,0x00,0x08,0x00,0x00,0x00,0x00,0x80,0x00,0x10,0x04,0x00,0x42,0x00,
 0x80,0x20,0x80,0x00,0x00,0x04,0x01,0x00,0x00,0x00,0x00,0xf0,0x47,0x00,0x00,
 0x04,0x00,0x00,0x00,0x10,0x08,0x00,0x20,0x68,0x25,0x40,0x20,0x20,0x08,0x20,
 0x08,0x00,0x02,0x40,0x20,0x48,0x08,0x00,0x80,0x00,0x42,0x00,0x00,0x00,0x04,
 0x02,0x40,0x40,0x00,0x20,0x00,0x04,0x40,0x00,0xa0,0x0b,0x20,0x88,0x00,0x80,
 0x00,0x92,0x80,0x00,0x42,0x00,0xd8,0x01,0x00,0x00,0x00,0x40,0x00,0x80,0x20,
 0x10,0x09,0x00,0x00,0x00,0x00,0x00,0x00,0x00,0x00,0x41,0x04,0x00,0x20,0x00,
 0x04,0x20,0x00,0x10,0x40,0x00,0x02,0xe1,0x07,0x00,0x00,0x40,0x00,0x20,0x00,
 0x00,0x40,0x00,0x04,0x75,0x01,0x04,0x01,0x01,0x01,0x02,0x02,0x00,0x00,0x00,
 0x02,0x01,0x02,0x01,0x00,0x40,0x00,0x10,0x08,0x00,0x00,0x00,0x08,0x00,0x01,
 0x08,0x02,0x01,0x08,0x20,0xe0,0x06,0x04,0x01,0x00,0x10,0x04,0x00,0x00,0x02,
 0x08,0x00,0x6a,0x81,0x00,0x10,0x10,0x00,0x00,0x00,0x02,0x00,0x00,0x00,0x00,
 0x00,0x00,0x08,0x02,0x04,0x00,0x00,0x20,0x90,0x00,0x02,0x00,0x00,0x01,0x00,
 0x00,0x00,0x00,0xe8,0x17,0x00,0x20,0x02,0x02,0x00,0x00,0x02,0x00,0x00,0x81,
 0x5c,0x08,0x20,0x00,0x00,0x00,0x10,0x00,0x80,0x40,0x20,0x08,0x10,0x10,0x00,
 0x00,0x00,0x40,0x02,0x00,0x01,0x02,0x08,0x00,0x11,0x10,0x40,0x00,0x20,0x82,
 0x00,0xa0,0x8f,0x20,0x00,0x20,0x00,0x00,0x44,0x20,0x10,0x00,0x10,0x36,0x00,
 0x00,0x40,0x80,0x90,0x00,0x41,0x10,0x08,0x04,0x80,0x80,0x00,0x00,0x20,0x08,
 0x00,0x20,0x00,0x00,0x00,0x40,0x40,0x00,0x00,0x00,0x48,0x04,0x00,0x84,0xe0,
 0x02,0x00,0x04,0x00,0x40,0x48,0x00,0x00,0x80,0x20,0x80,0x1d,0x00,0x02,0x01,
 0x02,0x00,0x00,0x08,0x00,0x00,0x00,0x01,0x00,0x40,0x02,0x00,0x40,0x02,0x00,
 0x24,0x10,0x00,0x00,0x00,0x00,0x02,0x00,0x00,0x00,0x10,0x00,0xe0,0x17,0x04,
 0x00,0x00,0x01,0x00,0x00,0x00,0x01,0x00,0x40,0x1b,0x41,0x00,0x00,0x00,0x02,
 0x22,0x00,0x00,0x00,0x00,0x00,0x04,0x04,0x00,0x04,0x01,0x10,0x08,0x01,0x80,
 0x88,0x00,0x04,0x20,0x20,0x89,0x00,0x80,0x00,0x20,0xb0,0x07,0x80,0x20,0x09,
 0x08,0x02,0x08,0x09,0x00,0x04,0xa0,0x07,0x00,0x10,0x04,0x10,0x00,0x00,0x00,
 0x21,0x21,0x10,0x08,0x00,0x00,0x00,0x00,0x00,0x00,0x01,0x00,0x04,0x00,0x10,
 0x00,0x04,0x00,0x00,0x00,0x00,0x00,0x01,0xe2,0x97,0x00,0x00,0x00,0x00,0x00,
 0x01,0x00,0x20,0x00,0x49,0x15,0x08,0x00,0x80,0x00,0x20,0x00,0x02,0x00,0x00,
 0x02,0x80,0x80,0x00,0x00,0x40,0x00,0x00,0x00,0x40,0x00,0x00,0x84,0x20,0x00,
 0x02,0x00,0x92,0x04,0x08,0x00,0xe0,0x07,0x10,0x04,0x00,0x40,0x00,0x40,0x80,
 0x08,0x00,0xd0,0x05,0x00,0x81,0x00,0x00,0x00,0x08,0x10,0x08,0x08,0x80,0x00,
 0x08,0x48,0x00,0x00,0x44,0x04,0x40,0x00,0x00,0x42,0x00,0x00,0x00,0x00,0x00,
 0x00,0x40,0x00,0x08,0xc0,0x16,0x00,0x00,0x40,0x02,0x20,0x00,0x00,0x00,0x22,
 0x68,0x05,0x01,0x08,0x10,0x88,0x04,0x41,0x00,0x00,0x00,0x00,0x00,0x00,0x00,
 0x00,0x04,0x00,0x20,0x00,0x04,0x08,0x00,0x00,0x04,0x11,0x10,0x49,0x00,0x00,
 0x42,0x00,0xa8,0x07,0x81,0x40,0x04,0x00,0x04,0x04,0x04,0x00,0x00,0xea,0x01,
 0x10,0x00,0x00,0x01,0x00,0x00,0x40,0x80,0x80,0x08,0x24,0x40,0x00,0x02,0x00,
 0x00,0x00,0x08,0x00,0x41,0x08,0x00,0x00,0x00,0x01,0x00,0x00,0x00,0x00,0x00,
 0xc1,0x17,0x00,0x00,0x00,0x20,0x00,0x00,0x40,0x40,0x00,0xb0,0x21,0x00,0x00,
 0x02,0x00,0x20,0x00,0x04,0x04,0x00,0x00,0x00,0x04,0x02,0x00,0x20,0x10,0x02,
 0x01,0x21,0x00,0x80,0x88,0x00,0x00,0x00,0x00,0x44,0x04,0x00,0x22,0xa0,0x0d,
 0x04,0x04,0x00,0x00,0x81,0x20,0x00,0x02,0x44,0x7e,0x00,0x82,0x20,0x40,0x00,
 0x00,0x00,0x00,0x00,0x04,0x40,0x00,0x00,0x10,0x00,0x00,0x02,0x00,0x00,0x00,
 0x00,0x00,0x00,0x40,0x08,0x40,0x00,0x00,0x80,0x10,0x00,0xa0,0x57,0x20,0x00,
 0x88,0x04,0x00,0x00,0x02,0x00,0x00,0x56,0x00,0x00,0x04,0x00,0x90,0x04,0x92,
 0x10,0x40,0x20,0x02,0x00,0x01,0x80,0x00,0x08,0x80,0x20,0x10,0x00,0x08,0x01,
 0x00,0x04,0x40,0x04,0x22,0x00,0x20,0x00,0x00,0xa0,0x0f,0x00,0x90,0x00,0x00,
 0x10,0x04,0x10,0x10,0x80,0x5a,0x04,0x10,0x00,0x04,0x00,0x00,0x00,0x80,0x00,
 0x00,0x10,0x12,0x10,0x00,0x00,0x00,0x00,0x00,0x00,0x08,0x00,0x20,0x22,0x00,
 0x01,0x00,0x00,0x11,0x02,0x80,0x08,0xa2,0x17,0x00,0x01,0x00,0x40,0x00,0x00,
 0x80,0x00,0x84,0x1e,0x00,0x01,0x80,0x00,0x02,0x40,0x00,0x00,0x10,0x00,0x00,
 0x00,0x00,0x02,0x00,0x80,0x10,0x08,0x82,0x40,0x00,0x00,0x00,0x00,0x00,0x00,
 0x00,0x00,0x00,0x02,0x40,0xc0,0x16,0x01,0x00,0x20,0x00,0x82,0x20,0x00,0x80,
 0xa0,0x0a,0x10,0x00,0x00,0x20,0x00,0x00,0x00,0x02,0x00,0x81,0x00,0x00,0x04,
 0x10,0x02,0x00,0x00,0x00,0x00,0x00,0x44,0x04,0x00,0x21,0x20,0x88,0x08,0x40,
 0x00,0x00,0x00,0x80,0x17,0x20,0x00,0x04,0x08,0x00,0x00,0x04,0x08,0x00,0x2f,
 0x01,0x00,0x12,0x00,0x80,0x08,0x44,0x20,0x04,0x10,0x00,0x81,0x40,0x00,0x00,
 0x04,0x04,0x81,0x20,0x00,0x00,0x80,0x00,0x00,0x04,0x01,0x00,0x00,0x44,0x10,
 0x00,0xc8,0x0f,0x08,0x12,0x00,0x01,0x00,0x00,0x01,0x00,0xf0,0x05,0x80,0x48,
 0x00,0x02,0x04,0x00,0x00,0x00,0x00,0x00,0x04,0x08,0x00,0x00,0x00,0x40,0x00,
 0x00,0x00,0x22,0x00,0x10,0x20,0x04,0x00,0x00,0x00,0x09,0x00,0x00,0x12,0x80,
 0x56,0x00,0x80,0x00,0x80,0x20,0x12,0x00,0x21,0x40,0x07,0x04,0x00,0x00,0x40,
 0x10,0x80,0x00,0x80,0x20,0x02,0x20,0x00,0x00,0x84,0x00,0x00,0x40,0x10,0x08,
 0x00,0x11,0x00,0x04,0x40,0x00,0x20,0x10,0x00,0x00,0x04,0x80,0xa0,0x1f,0x00,
 0x00,0x10,0x00,0x04,0x00,0x10,0x00,0xe9,0x00,0x00,0x00,0x20,0x00,0x00,0x01,
 0x08,0x01,0x00,0x40,0x00,0x00,0x02,0x00,0x00,0x00,0x00,0x00,0x00,0x00,0x00,
 0x02,0x00,0x00,0x20,0x00,0x02,0x00,0x22,0x40,0x00,0x80,0x1d,0x82,0x00,0x00,
 0x10,0x00,0x00,0x00,0x00,0xa8,0x4b,0x20,0x04,0x02,0x08,0x00,0x20,0x00,0x08,
 0x04,0x00,0x00,0x42,0x80,0x20,0x00,0x84,0x04,0x04,0x01,0x08,0x00,0x40,0x80,
 0x00,0x02,0x01,0x00,0x10,0x00,0x00,0x00,0xa4,0x2f,0x00,0x04,0x81,0x00,0x00,
 0x20,0x02,0x01,0x7a,0x01,0x00,0x20,0x00,0x01,0x01,0x00,0x02,0x00,0x80,0x08,
 0x02,0x00,0x10,0x00,0x02,0x00,0x00,0x00,0x00,0x01,0x40,0x00,0x00,0x20,0x00,
 0x10,0x40,0x42,0x00,0x01,0x22,0x80,0x1f,0x12,0x20,0x08,0x00,0x81,0x04,0x00,
 0x40,0xd4,0x00,0x82,0x00,0x08,0x00,0x40,0x08,0x40,0x40,0x00,0x00,0x40,0x08,
 0x00,0x04,0x00,0x20,0x20,0x40,0x10,0x40,0x02,0x04,0x12,0x04,0x00,0x80,0x00,
 0x00,0x08,0x08,0x00,0x40,0xfb,0x17,0x00,0x00,0x02,0x08,0x00,0x10,0x04,0x7b,
 0x00,0x00,0x00,0x00,0x20,0x08,0x00,0x00,0x00,0x08,0x40,0x00,0x00,0x01,0x00,
 0x00,0x00,0x00,0x02,0x00,0x00,0x00,0x00,0x00,0x00,0x41,0x00,0x08,0x00,0x00,
 0x00,0x00,0x82,0xff,0x96,0x00,0x00,0x20,0x00,0x80,0x00,0x00,0x5c,0x10,0x08,
 0x08,0x80,0x00,0x00,0x01,0x01,0x04,0x01,0x02,0x10,0x00,0x40,0x80,0x00,0x08,
 0x02,0x00,0x04,0x04,0x08,0x21,0x80,0x00,0x08,0x02,0x00,0x00,0x01,0x40,0x08,
 0x90,0xef,0x7f,0x00,0x21,0x00,0x00,0x00,0x80,0xa0,0x1b,0x00,0x00,0x40,0x00,
 0x04,0x01,0x20,0x08,0x00,0x40,0x00,0x00,0x21,0x08,0x08,0x00,0x00,0x00,0x20,
 0x80,0x00,0x00,0x00,0x00,0x00,0x00,0x20,0x00,0x11,0x40,0x02,0x40,0x80,0xbd,
 0x6d,0x24,0x00,0x00,0x22,0x11,0x08,0x80,0x1e,0x00,0x01,0x01,0x12,0x00,0x00,
 0x00,0x80,0x10,0x00,0x10,0x02,0x00,0x00,0x00,0x00,0x00,0x90,0x00,0x00,0x20,
 0x40,0x80,0x04,0x24,0x00,0x00,0x21,0x00,0x00,0x00,0x02,0x80,0xff,0xbf,0x01,
 0x80,0x04,0x00,0x00,0x00,0x48,0x43,0x02,0x20,0x00,0x00,0x20,0x10,0x04,0x00,
 0x00,0x04,0x00,0x40,0x00,0x01,0x41,0x02,0x00,0x01,0x04,0x02,0x00,0x04,0x08,
 0x20,0x00,0x81,0x00,0x00,0x40,0x08,0x20,0x00,0x84,0x6f,0xeb,0x00,0x08,0x80,
 0x00,0x00,0x41,0xa0,0x16,0x40,0x00,0x10,0x00,0x01,0x80,0x00,0x02,0x80,0x00,
 0x80,0x00,0x10,0x00,0x00,0x00,0x24,0x00,0x00,0x10,0x82,0x00,0x00,0x00,0x00,
 0x08,0x04,0x08,0x00,0x00,0x00,0x00,0xa0,0xbd,0x55,0x87,0x00,0x00,0x00,0x02,
 0x00,0xe0,0x05,0x00,0x04,0x00,0x00,0x00,0x02,0x20,0x10,0x01,0x20,0x01,0x08,
 0x04,0x10,0x08,0x00,0x00,0x04,0x80,0x00,0x00,0x00,0x00,0x00,0x01,0x00,0x40,
 0x00,0x08,0x81,0x84,0x80,0x88,0x6f,0xa5,0x2f,0x00,0x20,0x48,0x20,0x08,0x52,
 0x03,0x08,0x00,0x82,0x24,0x10,0x00,0x00,0x00,0x10,0x00,0x10,0x00,0x00,0x00,
 0x00,0x00,0x00,0x20,0x10,0x80,0x10,0x90,0x90,0x00,0x08,0x00,0x00,0x80,0x00,
 0x00,0x00,0x04,0xf4,0x9e,0x48,0x5a,0x90,0x00,0x00,0x00,0x00,0xd8,0x01,0x00,
 0x20,0x00,0x00,0x80,0x00,0x02,0x00,0x00,0x02,0x00,0x42,0x40,0x82,0x00,0x01,
 0x00,0x00,0x02,0x04,0x00,0x00,0x00,0x20,0x00,0x02,0x01,0x04,0x00,0x10,0x00,
 0x10,0xd9,0x5f,0x84,0x5a,0x02,0x04,0x01,0x00,0x41,0xe8,0x11,0x41,0x02,0x08,
 0x00,0x02,0x40,0x00,0x84,0x00,0x00,0x00,0x00,0x00,0x00,0x20,0x00,0x88,0x00,
 0x00,0x00,0x80,0x00,0x04,0x04,0x40,0x10,0x08,0x00,0x20,0x00,0x08,0xc0,0x57,
 0x37,0x11,0xf4,0x05,0x00,0x00,0x11,0x00,0x3a,0x00,0x00,0x00,0x00,0x00,0x00,
 0x04,0x90,0x00,0x44,0x90,0x88,0x00,0x02,0x10,0x04,0x00,0x00,0x00,0x00,0x20,
 0x04,0x08,0x00,0x00,0x02,0x00,0x80,0x40,0x04,0x04,0x81,0x80,0xaa,0x5f,0x4a,
 0xa9,0x25,0x20,0x20,0x00,0x00,0xea,0x02,0x08,0x80,0x00,0x91,0x20,0x00,0x00,
 0x10,0x00,0x00,0x00,0x10,0x10,0x00,0x00,0x00,0x00,0x24,0x48,0x00,0x00,0x40,
 0x40,0x00,0x00,0x00,0x00,0x00,0x00,0x00,0x00,0x7a,0x81,0xbe,0x20,0x44,0x5b,
 0x00,0x04,0x00,0x84,0x1e,0x20,0x00,0x04,0x10,0x00,0x00,0x00,0x01,0x00,0x00,
 0x02,0x00,0x00,0x80,0x80,0x00,0x01,0x20,0x00,0x01,0x84,0x40,0x00,0x00,0x40,
 0x10,0x84,0x04,0x10,0x80,0x20,0x00,0xf8,0xaa,0x5b,0x08,0x91,0x5c,0x05,0x00,
 0x84,0x80,0x6a,0x00,0x80,0x00,0x00,0x00,0x04,0x21,0x00,0x80,0x10,0x00,0x21,
 0x80,0x00,0x04,0x00,0x00,0x04,0x00,0x00,0x00,0x00,0x02,0x02,0x02,0x00,0x00,
 0x20,0x02,0x01,0x00,0xd2,0x0f,0x80,0x5f,0x25,0x02,0xf5,0x40,0x00,0x00,0x90,
 0x1e,0x00,0x01,0x20,0x02,0x02,0x00,0x00,0x88,0x00,0x00,0x00,0x00,0x01,0x00,
 0x00,0x08,0x00,0x00,0x02,0x00,0x00,0x10,0x00,0x20,0x00,0x82,0x10,0x00,0x00,
 0x10,0x04,0x40,0xbf,0xaa,0x76,0x80,0x54,0xa8,0x15,0x80,0x00,0xa0,0x1b,0x10,
 0x10,0x00,0x40,0x40,0x10,0x04,0x00,0x08,0x00,0x21,0x00,0x10,0x10,0x40,0x80,
 0x00,0x00,0x10,0x44,0x10,0x02,0x10,0x00,0x08,0x00,0x00,0x00,0x00,0x00,0x80,
 0xfc,0x00,0x80,0x5f,0x15,0x80,0x52,0x0f,0x09,0x08,0x42,0x07,0x01,0x00,0x02,
 0x00,0x00,0x00,0x40,0x00,0x00,0x01,0x00,0x02,0x00,0x01,0x01,0x00,0x00,0x40,
 0x00,0x00,0x02,0x80,0x00,0x82,0x00,0x10,0x00,0x44,0x88,0x40,0x00,0x58,0x57,
 0x55,0x5d,0xa0,0x2a,0x84,0x5a,0x00,0x40,0xe0,0x06,0x00,0x01,0x00,0x08,0x08,
 0x41,0x00,0x44,0x20,0x20,0x08,0x40,0x00,0x00,0x08,0x08,0x02,0x00,0x80,0x00,
 0x00,0x00,0x40,0x00,0x40,0x00,0x21,0x00,0x00,0x00,0x28,0x57,0x00,0x40,0xbf,
 0x0a,0x40,0x50,0x6a,0x01,0x01,0xa8,0x21,0x00,0x10,0x48,0x00,0x00,0x00,0x10,
 0x00,0x02,0x08,0x00,0x10,0x02,0x20,0x80,0x00,0x00,0x08,0x04,0x10,0x00,0x01,
 0x04,0x08,0x00,0x00,0x80,0x00,0x00,0x08,0x81,0x2c,0xa9,0x2a,0x5b,0x40,0x95,
 0x8a,0xd4,0x24,0x00,0xd0,0x05,0x24,0x80,0x00,0x00,0x01,0x00,0x02,0x00,0x00,
 0x00,0x01,0x01,0x40,0x04,0x00,0x40,0x00,0x00,0x00,0x00,0x08,0x08,0x00,0x00,
 0x09,0x02,0x00,0x10,0x21,0x00,0x64,0x83,0x04,0xc0,0x5e,0x15,0x00,0x20,0x92,
 0x0b,0x00,0x6d,0x00,0x00,0x04,0x00,0x22,0x20,0x04,0x00,0x01,0x80,0x00,0x20,
 0x00,0x00,0x00,0x00,0x00,0x00,0x80,0x20,0x02,0x21,0x80,0x00,0x00,0x00,0x80,
 0x08,0x00,0x00,0x01,0xe8,0x54,0x50,0x15,0x7f,0x80,0xaa,0x8a,0x40,0x56,0x22,
 0xd8,0x01,0x00,0x00,0x00,0x00,0x00,0x20,0x00,0x90,0x00,0x00,0x00,0x00,0x10,
 0x00,0x91,0x08,0x00,0x10,0x00,0x00,0x00,0x00,0x48,0x10,0x40,0x10,0x00,0x02,
 0x08,0x20,0x57,0x01,0x05,0xa0,0x56,0x15,0x00,0x10,0x2a,0x6d,0x01,0x76,0x90,
 0x40,0x00,0x49,0x00,0x04,0x00,0x08,0x00,0x04,0x04,0x02,0x44,0x00,0x21,0x00,
 0x00,0x01,0x00,0x04,0x20,0x00,0x04,0x00,0x02,0x00,0x00,0x00,0x40,0x00,0x84,
 0x3c,0xa8,0xa0,0x8a,0xfe,0x40,0x55,0x45,0x01,0xf2,0x04,0x7a,0x00,0x08,0x10,
 0x00,0x08,0x00,0x01,0x81,0x00,0x40,0x40,0x00,0x00,0x04,0x00,0x00,0x00,0x00,
 0x04,0x80,0x00,0x80,0x20,0x00,0x80,0x08,0x02,0x22,0x00,0x00,0x70,0x83,0x02,
 0x0a,0x90,0x5b,0x0b,0x00,0x08,0x54,0x88,0x4b,0x0d,0x02,0x00,0x02,0x00,0x40,
 0x20,0x00,0x00,0x04,0x00,0x00,0x48,0x00,0x00,0x00,0x04,0x22,0x00,0x00,0x00,
 0x04,0x09,0x00,0x02,0x00,0x00,0x00,0x00,0x00,0x04,0xc4,0x55,0x50,0x41,0x45,
 0xfe,0x52,0x55,0xa5,0x02,0xa5,0x96,0x5e,0x00,0x00,0x00,0x00,0x00,0x00,0x20,
 0x00,0x00,0x02,0x02,0x00,0x42,0x80,0x10,0x20,0x00,0x00,0x40,0x08,0x00,0x00,
 0x00,0x10,0x08,0x00,0x10,0x80,0x04,0xa0,0x5e,0x80,0x0a,0x14,0x88,0xff,0x2f,
 0x00,0x10,0x28,0x10,0x75,0x0b,0x10,0x21,0x40,0x44,0x04,0x01,0x04,0x44,0x20,
 0x10,0x10,0x00,0x00,0x08,0x80,0x00,0x00,0x01,0x00,0x00,0x20,0x00,0x08,0x00,
 0x01,0x84,0x80,0x08,0x20,0x01,0x2a,0x2a,0x80,0x82,0x52,0x6a,0x55,0x55,0x05,
 0x85,0x8a,0xd8,0x16,0x00,0x00,0x00,0x00,0x00,0x10,0x00,0x00,0x00,0x00,0x00,
 0x02,0x08,0x01,0x02,0x00,0x08,0x00,0x08,0x42,0x00,0x90,0x40,0x00,0x40,0x00,
 0x00,0x00,0x00,0xe8,0x4b,0x40,0x55,0x28,0xa0,0xff,0xaf,0x00,0xa8,0x10,0x20,
 0xd2,0x87,0x00,0x08,0x11,0x00,0x00,0x80,0x80,0x00,0x02,0x00,0x00,0x10,0x00,
 0x00,0x00,0x80,0x00,0x00,0x00,0x00,0x00,0x02,0x00,0x04,0x00,0x20,0x04,0x00,
 0x00,0x62,0x95,0x2a,0x00,0x84,0xca,0x7e,0x75,0xab,0x02,0x44,0x15,0x69,0x15,
 0x84,0x00,0x00,0x10,0x91,0x00,0x00,0x10,0x80,0x84,0x84,0x80,0x00,0x20,0x20,
 0x10,0x00,0x01,0x40,0x00,0x02,0x00,0x00,0x20,0x04,0x00,0x00,0x22,0x02,0xbd,
 0x00,0x80,0xaa,0x12,0x6a,0xf7,0xae,0x15,0x54,0x11,0x40,0xda,0x2f,0x00,0x00,
 0x80,0x00,0x00,0x04,0x04,0x00,0x10,0x00,0x00,0x00,0x20,0x00,0x00,0x01,0x10,
 0x00,0x00,0x20,0x40,0x00,0x10,0x00,0x00,0x04,0x40,0x00,0x40,0x5e,0x55,0x55,
 0x00,0x40,0xb5,0xbf,0xd5,0x4a,0x01,0x88,0x2a,0x6a,0x5b,0x11,0x40,0x04,0x00,
 0x00,0x00,0x20,0x02,0x01,0x10,0x10,0x00,0x04,0x04,0x04,0x00,0x02,0x00,0x04,
 0x04,0x10,0x88,0x80,0x00,0x21,0x80,0x00,0x00,0xe8,0x15,0x00,0x80,0xaa,0x8a,
 0x6a,0xfd,0xb6,0x56,0xaa,0x22,0x40,0xbd,0xf4,0x02,0x01,0x00,0x42,0x00,0x20,
 0x00,0x00,0x00,0x00,0x00,0x09,0x00,0x40,0x00,0x00,0x00,0x04,0x00,0x80,0x00,
 0x00,0x02,0x08,0x80,0x00,0x10,0x08,0xe2,0xa6,0xaa,0x2a,0x00,0x50,0xb6,0xbe,
 0x55,0x55,0x01,0x10,0x15,0xea,0xa9,0x15,0x08,0x20,0x00,0x10,0x01,0x01,0x40,
 0x00,0x00,0x01,0x00,0x80,0x00,0x40,0x48,0x80,0x00,0x20,0x00,0x00,0x01,0x00,
 0x00,0x00,0x08,0x00,0x40,0x5a,0x11,0x00,0x40,0x55,0xa5,0xcd,0x76,0xaa,0xaa,
 0xaa,0x42,0xa0,0x5a,0x42,0x2f,0x00,0x01,0x10,0x02,0x00,0x80,0x08,0x24,0x01,
 0x00,0x40,0x00,0x08,0x04,0x00,0x08,0x00,0x00,0x01,0x04,0x00,0x20,0x40,0x04,
 0x00,0x04,0x81,0x5a,0x84,0xaa,0x2a,0x00,0x68,0x55,0xff,0x95,0x54,0x15,0x28,
 0x8a,0x76,0x28,0x3a,0x01,0x80,0x00,0x00,0x10,0x10,0x00,0x00,0x20,0x90,0x00,
 0x11,0x00,0x00,0x01,0x00,0x00,0x04,0x08,0x00,0x08,0x00,0x01,0x00,0x20,0x00,
 0x88,0x95,0x28,0x00,0x80,0xaa,0xd7,0xaa,0x2e,0x26,0x49,0xaa,0x82,0x50,0x9f,
 0x42,0xe9,0x44,0x00,0x00,0x40,0x00,0x00,0x00,0x00,0x00,0x00,0x04,0x00,0x42,
 0x00,0x80,0x00,0x00,0x00,0x00,0x40,0x80,0x04,0x00,0x20,0x82,0x80,0x50,0x2f,
 0x02,0x55,0x55,0x84,0xb4,0xaa,0xfa,0x55,0xaa,0x4a,0x28,0xa5,0x5a,0x10,0xa8,
 0x03,0x08,0x84,0x00,0x82,0x04,0x00,0x02,0x08,0x02,0x00,0x00,0x00,0x10,0x10,
 0x40,0x02,0x40,0x40,0x00,0x00,0x00,0x08,0x00,0x00,0xa8,0x6d,0x81,0x28,0x00,
 0x00,0x69,0xab,0x4a,0xfe,0x86,0x94,0x54,0x81,0xd0,0x17,0x45,0x45,0x5d,0x01,
 0x00,0x04,0x00,0x40,0x12,0x10,0x01,0x00,0x00,0x44,0x00,0x02,0x00,0x02,0x00,
 0x00,0x00,0x08,0x11,0x80,0x80,0x04,0x00,0x90,0xb9,0x40,0x84,0xaa,0xaa,0xa8,
 0xad,0x2a,0xdd,0x25,0x4a,0xaa,0x2a,0xa4,0x96,0x20,0x90,0x66,0x85,0x10,0x00,
 0x08,0x00,0x40,0x00,0x40,0x88,0x90,0x00,0x10,0x00,0x02,0x00,0x00,0x08,0x02,
 0x01,0x00,0x10,0x00,0x40,0x04,0xfa,0x2f,0x15,0x11,0x00,0x00,0xf2,0x5a,0xa5,
 0x76,0x49,0x24,0xd1,0x41,0x69,0x4b,0x8a,0x42,0xfa,0x1b,0x00,0x20,0x00,0x00,
 0x00,0x00,0x00,0x00,0x00,0x00,0x00,0x40,0x40,0x10,0x00,0x00,0x10,0x00,0x00,
 0x02,0x04,0x00,0x80,0xd8,0xb6,0x40,0xa4,0xaa,0xaa,0x64,0xab,0x12,0x7d,0x29,
 0x89,0xaa,0x16,0xd2,0x15,0x40,0x10,0xdd,0x16,0x00,0x02,0x40,0x24,0x00,0x44,
 0x00,0x00,0x02,0x10,0x02,0x01,0x00,0x00,0x01,0x00,0x00,0x20,0x44,0x00,0x20,
 0x00,0x80,0xfe,0x5f,0x8a,0x00,0x00,0x00,0xd0,0x55,0x55,0x7e,0xa5,0x24,0xea,
 0x48,0x6c,0x41,0x15,0xc5,0xfe,0x5f,0x04,0x00,0x01,0x00,0x01,0x00,0x82,0x20,
 0x00,0x00,0x00,0x08,0x04,0x04,0x00,0x84,0x00,0x00,0x00,0x00,0x00,0x88,0x10,
 0x6f,0x6b,0x21,0x55,0x55,0x55,0xa5,0xaf,0x92,0xda,0x12,0x49,0x75,0x23,0xb2,
 0x2b,0x80,0x10,0xb7,0x6d,0x40,0x10,0x00,0x00,0x88,0x00,0x10,0x04,0x20,0x42,
 0x20,0x00,0x00,0x00,0x00,0x00,0x20,0x09,0x00,0x48,0x00,0x01,0x80,0xfd,0x0f,
 0x14,0x00,0x00,0x00,0x88,0xba,0x54,0x7e,0x49,0x24,0x5d,0x88,0xa8,0x40,0x15,
 0xa2,0xf4,0x3f,0x01,0x00,0x08,0x01,0x00,0x00,0x00,0x00,0x00,0x00,0x00,0x40,
 0x90,0x00,0x00,0x20,0x04,0x00,0x02,0x00,0x08,0x00,0x82,0xb7,0xb5,0x82,0xaa,
 0xaa,0xaa,0x22,0xbd,0x2a,0x75,0x91,0x92,0xae,0x22,0x52,0x14,0xa0,0x08,0x6a,
 0x75,0x00,0x02,0x00,0x20,0x00,0x90,0x00,0x00,0x04,0x00,0x08,0x02,0x00,0x40,
 0x02,0x00,0x00,0x80,0x90,0x00,0x00,0x00,0x40,0xff,0x0e,0x28,0x00,0x00,0x00,
 0x44,0xd2,0xa5,0xfa,0x4a,0xe4,0x13,0x88,0x88,0xa0,0x0a,0x51,0xfa,0x7f,0x10,
 0x20,0x41,0x00,0x20,0x02,0x40,0x10,0x40,0x08,0x01,0x00,0x02,0x08,0x00,0x00,
 0x00,0x00,0x00,0x00,0x41,0x44,0x80,0xb7,0x57,0x05,0x55,0x55,0x55,0x11,0xe8,
 0x2a,0x7d,0x21,0xa9,0x85,0x22,0x22,0x0a,0x40,0x04,0xdd,0xae,0x00,0x00,0x00,
 0x04,0x04,0x00,0x08,0x80,0x00,0x00,0x40,0x20,0x00,0x00,0x00,0x84,0x10,0x11,
 0x00,0x04,0x00,0x00,0x08,0xfd,0xbf,0x50,0x00,0x00,0x20,0xa2,0x52,0x57,0xed,
 0x4a,0x3d,0x52,0x88,0x88,0x50,0x15,0xe9,0xfe,0x7b,0x00,0x00,0x00,0x40,0x00,
 0x00,0x00,0x02,0x10,0x00,0x00,0x00,0x20,0x01,0x00,0x00,0x00,0x00,0x00,0x20,
 0x08,0x00,0x80,0xde,0xaa,0x0a,0xaa,0xaa,0x8a,0x08,0x84,0xad,0x7a,0xa5,0xda,
 0x08,0x22,0x22,0x04,0x40,0x42,0xd7,0x7e,0x44,0x12,0x10,0x00,0x00,0x10,0x01,
 0x00,0x00,0x88,0x00,0x84,0x00,0x00,0x01,0x20,0x04,0x00,0x11,0x01,0x00,0x11,
 0x81,0x7e,0xff,0xa5,0x00,0x00,0x10,0x52,0x50,0x5a,0xdf,0x4a,0x0b,0xa1,0x88,
 0x88,0x52,0x15,0xf8,0xfd,0x37,0x00,0x80,0x00,0x01,0x48,0x00,0x10,0x00,0x81,
 0x00,0x04,0x00,0x04,0x10,0x00,0x00,0x40,0x08,0x00,0x00,0x01,0x00,0x00,0xdf,
 0x6b,0x0b,0x54,0x55,0x45,0x81,0x0a,0xe9,0xf4,0xa9,0x55,0x14,0x22,0x22,0x04,
 0x80,0x6a,0x6f,0xfd,0x00,0x00,0x02,0x10,0x01,0x02,0x00,0x21,0x00,0x00,0x20,
 0x01,0x00,0x00,0x00,0x00,0x00,0x00,0x00,0x00,0x10,0x00,0x88,0x7a,0xdd,0xb7,
 0x02,0x00,0x08,0x14,0x20,0xa4,0x7b,0xf5,0x00,0x41,0x44,0x44,0x50,0x55,0xdf,
 0xbd,0x6f,0x10,0x00,0x20,0x00,0x00,0x40,0x00,0x00,0x08,0x10,0x00,0x10,0x20,
 0x02,0x04,0x08,0x01,0x41,0x44,0x10,0x00,0x40,0x00,0xfe,0xb7,0x5d,0xa8,0xaa,
 0xa2,0x42,0x15,0xd1,0xde,0x6a,0x55,0x14,0x11,0x91,0x0a,0x00,0x75,0xeb,0x7b,
 0x00,0x11,0x00,0x00,0x00,0x00,0x08,0x08,0x00,0x02,0x01,0x00,0x01,0x80,0x00,
 0x00,0x00,0x00,0x00,0x00,0x80,0x04,0x80,0xd6,0x6a,0xf7,0x02,0x00,0x09,0x08,
 0x40,0x82,0xfa,0x2f,0x82,0x20,0x44,0x04,0x50,0xd5,0xaf,0x7d,0x5f,0x04,0x00,
 0x00,0x42,0x08,0x04,0x40,0x80,0x40,0x00,0x00,0x00,0x00,0x00,0x00,0x20,0x10,
 0x08,0x00,0x02,0x09,0x00,0x04,0xfe,0xb7,0x7d,0x51,0x55,0x90,0x52,0x95,0x50,
 0xfe,0x96,0x20,0x4a,0x11,0x51,0x05,0xc0,0x76,0xd7,0x7f,0x00,0x00,0x11,0x00,
 0x80,0x00,0x02,0x00,0x00,0x00,0x10,0x09,0x88,0x10,0x00,0x00,0x00,0x00,0x01,
 0x00,0x00,0x00,0x20,0xdf,0x5a,0xd5,0x07,0x20,0x45,0x08,0x40,0x0a,0xd9,0x41,
 0x8a,0x00,0x22,0x02,0xa8,0xfe,0xdb,0x7a,0x2d,0x00,0x04,0x80,0x00,0x02,0x10,
 0x00,0x00,0x02,0x08,0x00,0x00,0x00,0x00,0x00,0x02,0x84,0x00,0x40,0x20,0x40,
 0x80,0x00,0xfa,0xbf,0xfb,0xbb,0x4a,0x10,0x42,0x15,0x40,0x7a,0x15,0x20,0xa9,
 0x88,0x50,0x05,0xfa,0xbe,0xd6,0x5f,0x82,0x20,0x00,0x20,0x00,0x00,0x10,0x24,
 0x20,0x80,0x04,0x00,0x01,0x04,0x02,0x80,0x00,0x10,0x08,0x00,0x00,0x12,0x80,
 0x5e,0x7f,0x55,0x2f,0x00,0x49,0x24,0xa0,0x8a,0xec,0xa1,0x0a,0x04,0x25,0x0a,
 0xf0,0xad,0xa5,0xfa,0x3e,0x10,0x00,0x04,0x00,0x20,0x40,0x80,0x00,0x00,0x01,
 0x40,0x10,0x20,0x40,0x00,0x10,0x00,0x02,0x00,0x08,0x04,0x00,0x08,0xfe,0xff,
 0xde,0xda,0x55,0x02,0x09,0x15,0x20,0x78,0x09,0x40,0x41,0x08,0x81,0x0a,0x7f,
 0xab,0xbd,0x5b,0x00,0x00,0x00,0x08,0x00,0x04,0x00,0x00,0x01,0x00,0x00,0x00,
 0x00,0x00,0x00,0x00,0x10,0x80,0x00,0x81,0x00,0x00,0x00,0x76,0xff,0xab,0x7f,
 0x01,0x28,0x20,0x40,0x95,0xfa,0x51,0x15,0x2a,0xa1,0x54,0xe8,0x55,0x55,0xf7,
 0x5f,0x00,0x80,0x20,0x82,0x04,0x00,0x02,0x00,0x08,0x08,0x00,0x02,0x01,0x10,
 0x00,0x00,0x00,0x00,0x00,0x00,0x80,0x00,0x41,0xde,0xff,0xdd,0xda,0x56,0x85,
 0x8a,0x2a,0x00,0x74,0x05,0x80,0x00,0x12,0x00,0xf5,0xbf,0xaa,0xbd,0x5d,0x04,
 0x12,0x00,0x00,0x80,0x10,0x20,0x20,0x00,0x80,0x24,0x00,0x10,0x02,0x00,0x40,
 0x02,0x08,0x12,0x00,0x10,0x04,0x00,0xfe,0xfe,0x6f,0xf5,0x17,0x10,0x10,0x40,
 0x55,0xf8,0xa9,0x2a,0x55,0x48,0x55,0x5d,0x55,0xb5,0xf6,0x5f,0x20,0x00,0x04,
 0x00,0x00,0x00,0x00,0x01,0x40,0x00,0x00,0x10,0x00,0x00,0x01,0x08,0x00,0x01,
 0x00,0x44,0x00,0x20,0x08,0xbe,0xff,0xdf,0xae,0xad,0x4a,0x45,0x15,0x80,0xba,
 0x03,0x40,0x00,0x02,0x80,0xf6,0x2e,0x55,0xdf,0x36,0x00,0x00,0x40,0x20,0x00,
 0x00,0x01,0x04,0x02,0x04,0x80,0x00,0x80,0x00,0x00,0x00,0x10,0x40,0x80,0x00,
 0x02,0x00,0x00,0xf6,0xff,0xff,0x75,0xb7,0x20,0x08,0xa0,0x2a,0xf4,0x54,0x15,
 0x55,0xa9,0xaa,0xaf,0xd1,0xda,0xfd,0x5f,0x00,0x40,0x00,0x00,0x09,0x01,0x08,
 0x00,0x00,0x20,0x00,0x40,0x02,0x08,0x00,0x00,0x00,0x00,0x00,0x00,0x80,0x80,
 0x20,0xfe,0xde,0xff,0xae,0xde,0x8a,0x52,0x15,0x00,0xe9,0x03,0x80,0x00,0x00,
 0xc0,0xdb,0xaa,0xea,0xae,0x5d,0x08,0x09,0x00,0x04,0x00,0x40,0x00,0x40,0x40,
 0x00,0x08,0x04,0x00,0x80,0x00,0x20,0x02,0x02,0x22,0x10,0x00,0x00,0x00,0xbe,
 0xff,0xff,0xdb,0x7d,0x23,0x08,0x40,0x55,0xbc,0xa9,0x2a,0xaa,0xaa,0x7e,0x37,
 0x55,0xab,0xfb,0x1f,0x00,0x00,0x02,0x00,0x20,0x08,0x40,0x00,0x04,0x00,0x01,
 0x00,0x10,0x00,0x00,0x04,0x40,0x20,0x00,0x00,0x10,0x08,0x00,0xfa,0xff,0xff,
 0xb7,0xd6,0x95,0xa2,0x2a,0x00,0xe9,0x05,0x00,0x01,0x00,0xfa,0x6d,0x55,0xf5,
 0xfe,0x36,0x21,0x00,0x20,0x41,0x00,0x00,0x02,0x08,0x00,0x08,0x40,0x10,0x00,
 0x04,0x02,0x00,0x00,0x00,0x00,0x82,0x00,0x00,0x81,0xde,0xfe,0xff,0x7f,0xfb,
 0x2f,0x08,0x80,0x2a,0x50,0x51,0x55,0x54,0xf5,0xad,0x56,0x6d,0xd7,0xaf,0x1f,
 0x00,0x20,0x00,0x00,0x02,0x01,0x00,0x80,0x40,0x00,0x00,0x80,0x40,0x20,0x00,
 0x80,0x00,0x00,0x08,0x00,0x00,0x02,0x10,0xfc,0xff,0xff,0xdf,0x55,0x5b,0x45,
 0x55,0x00,0x55,0x09,0x00,0x02,0x00,0xbf,0xab,0xaa,0x75,0xff,0x5f,0x00,0x04,
 0x00,0x08,0x00,0x00,0x10,0x01,0x00,0x81,0x00,0x01,0x04,0x00,0x00,0x00,0x04,
 0x11,0x41,0x20,0x44,0x20,0x00,0x7a,0xfb,0xff,0xff,0x6e,0x7f,0x11,0x00,0x55,
 0x80,0xa4,0xaa,0xa8,0xfa,0x75,0x55,0xb5,0xde,0x7b,0x1b,0x84,0x00,0x09,0x00,
 0x10,0x48,0x00,0x00,0x04,0x00,0x04,0x00,0x00,0x00,0x00,0x10,0x20,0x00,0x00,
 0x00,0x00,0x00,0x00,0xfc,0xff,0xff,0xff,0xb7,0xd5,0x85,0xaa,0x00,0x2a,0x01,
 0x00,0x04,0xe8,0xdf,0xab,0xad,0xf5,0xdf,0x5f,0x00,0x00,0x80,0x80,0x00,0x00,
 0x00,0x48,0x00,0x20,0x00,0x20,0x20,0x84,0x00,0x00,0x00,0x00,0x00,0x02,0x00,
 0x00,0x21,0xb5,0xff,0xff,0xff,0xdb,0x7e,0x17,0x00,0xaa,0x00,0x54,0x55,0xd1,
 0xbf,0x76,0x6a,0xdb,0xfe,0x7f,0x1f,0x20,0x10,0x00,0x00,0x80,0x00,0x02,0x00,
 0x00,0x04,0x20,0x04,0x00,0x00,0x00,0x02,0x01,0x44,0x00,0x80,0x08,0x11,0x00,
 0xfa,0xfe,0xff,0xff,0x6f,0xd5,0x57,0x55,0x01,0xaa,0x02,0x00,0x08,0x6d,0xbb,
 0x5b,0x6d,0x6f,0xef,0x5b,0x02,0x00,0x00,0x24,0x08,0x00,0x20,0x01,0x90,0x00,
 0x01,0x00,0x04,0x01,0x02,0x00,0x00,0x00,0x12,0x10,0x00,0x00,0x04,0xfc,0xff,
 0xff,0xff,0xbf,0xbb,0x5e,0x00,0xaa,0x00,0x54,0x55,0xe1,0xb7,0x6d,0xed,0xb6,
 0xfd,0xbf,0x1f,0x00,0x82,0x04,0x00,0x00,0x44,0x00,0x80,0x00,0x00,0x00,0x81,
 0x00,0x10,0x00,0x20,0x90,0x00,0x80,0x00,0x00,0x40,0x00,0x70,0xfb,0xff,0xff,
 0x6f,0xd5,0xbb,0xaa,0x00,0x54,0x01,0x00,0xaa,0xd6,0xab,0xbb,0xed,0xff,0xff,
 0x1f,0x00,0x00,0x80,0x00,0x41,0x00,0x00,0x10,0x00,0x00,0x10,0x00,0x00,0x00,
 0x00,0x00,0x00,0x00,0x00,0x00,0x44,0x00,0x40,0xfa,0xff,0xff,0xff,0xbf,0x6f,
 0xef,0x01,0x55,0x01,0xaa,0x2a,0xfa,0x5d,0xda,0x76,0x77,0xf7,0x6d,0x1b,0x88,
 0x20,0x00,0x00,0x00,0x00,0x02,0x00,0x04,0x12,0x00,0x10,0x10,0x02,0x00,0x00,
 0x02,0x90,0x00,0x04,0x00,0x08,0x00,0xf8,0xfe,0xff,0xff,0xee,0xb5,0xfa,0xad,
 0x00,0xa8,0x00,0x84,0x5a,0xb7,0xb5,0xad,0xdd,0xff,0xff,0x1f,0x01,0x00,0x20,
 0x10,0x08,0x10,0x20,0x02,0x20,0x00,0x04,0x00,0x00,0x00,0x01,0x04,0x00,0x01,
 0x04,0x20,0x00,0x00,0x09,0xfa,0xfb,0xff,0xff,0xbf,0xdf,0x56,0x17,0xaa,0x02,
 0x55,0xb1,0xbf,0xaa,0xf6,0xf6,0xfe,0xbd,0xdb,0x1e,0x00,0x08,0x02,0x02,0x80,
 0x00,0x00,0x40,0x00,0x80,0x40,0x82,0x40,0x10,0x00,0x80,0x20,0x00,0x80,0x00,
 0x11,0x02,0x00,0x78,0xff,0xff,0xff,0xef,0x7f,0xfb,0x5d,0x01,0x50,0x00,0xc4,
 0x6a,0xab,0xda,0xbb,0xef,0xff,0xff,0x2f,0x20,0x00,0x00,0x00,0x01,0x00,0x01,
 0x00,0x00,0x00,0x00,0x00,0x04,0x00,0x00,0x20,0x00,0x00,0x00,0x00,0x00,0x20,
 0x80,0xec,0xff,0xff,0xff,0xff,0xff,0x56,0x77,0x54,0x85,0xaa,0x78,0xdf,0xaa,
 0x76,0xef,0xbe,0xff,0xee,0x1f,0x00,0x01,0x00,0x00,0x00,0x02,0x88,0x08,0x82,
 0x04,0x00,0x00,0x00,0x04,0x02,0x00,0x04,0x90,0x10,0x08,0x40,0x00,0x00,0xf8,
 0xfd,0xff,0xff,0xdf,0xdf,0xb5,0x7f,0x03,0x20,0x00,0xd2,0xb7,0xaa,0xdd,0xbb,
 0xfb,0xef,0xbf,0x36,0x04,0x80,0x90,0x20,0x20,0x40,0x00,0x00,0x00,0x20,0x22,
 0x20,0x10,0x40,0x00,0x00,0x40,0x02,0x00,0x00,0x00,0x08,0x09,0xf8,0xff,0xff,
 0xff,0xef,0xff,0x6f,0xd5,0xad,0x8a,0xaa,0x7f,0xad,0xaa,0x76,0xef,0xff,0xfe,
 0xfb,0x1f,0x00,0x10,0x00,0x04,0x02,0x00,0x00,0x40,0x10,0x00,0x00,0x01,0x80,
 0x00,0x00,0x08,0x00,0x00,0x02,0x01,0x09,0x00,0x00,0x74,0xfb,0xff,0xff,0xff,
 0xff,0xbb,0x7d,0x17,0xa0,0x40,0xda,0x56,0x55,0xfb,0xfb,0xdf,0xff,0xde,0x1f,
 0x81,0x00,0x02,0x00,0x00,0x08,0x02,0x02,0x00,0x00,0x00,0x00,0x01,0x00,0x00,
 0x80,0x00,0x00,0x00,0x10,0x00,0x01,0x40,0xf8,0xff,0xff,0xff,0xb7,0xff,0xdf,
 0xd6,0x7d,0x7f,0xa5,0xb7,0xa9,0xda,0x6e,0xef,0xfe,0xdf,0x7b,0x17,0x10,0x00,
 0x00,0x00,0x10,0x01,0x10,0x00,0x82,0x00,0x04,0x04,0x00,0x00,0x00,0x00,0x20,
 0x00,0x40,0x00,0x00,0x40,0x00,0xf0,0xfd,0xff,0xff,0xff,0xff,0xff,0xbb,0x9f,
 0xd8,0xd3,0x5d,0xa5,0x6a,0xfb,0xfb,0xf7,0xfb,0xde,0x1f,0x00,0x08,0x10,0x01,
 0x01,0x20,0x00,0x20,0x00,0x90,0x40,0x20,0x20,0x48,0x02,0x10,0x04,0x12,0x04,
 0x04,0x10,0x00,0x02,0xfc,0xff,0xff,0xff,0xef,0xff,0x7f,0x6d,0xf5,0x7f,0xbf,
 0x77,0x55,0xad,0xed,0xbf,0xbf,0xef,0xfb,0x1f,0x00,0x80,0x00,0x08,0x00,0x00,
 0x40,0x00,0x20,0x00,0x00,0x00,0x02,0x01,0x00,0x02,0x00,0x80,0x00,0x00,0x02,
 0x08,0x20,0xe8,0xf6,0xff,0xff,0xfe,0xff,0xff,0xb7,0xbf,0xfe,0xed,0xad,0xaa,
 0x56,0x7f,0xfb,0xff,0xbf,0xee,0x1e,0x09,0x01,0x00,0x40,0x40,0x00,0x04,0x08,
 0x00,0x02,0x00,0x00,0x00,0x00,0x00,0x00,0x01,0x00,0x00,0x20,0x80,0x00,0x00,
 0xf8,0xff,0xff,0xff,0xef,0xff,0xff,0xdf,0xea,0xeb,0xbf,0x56,0xb5,0xed,0xff,
 0xff,0xfe,0xfa,0xbf,0x17,0x00,0x10,0x20,0x00,0x04,0x82,0x00,0x80,0x04,0x00,
 0x22,0x02,0x00,0x00,0x00,0x00,0x00,0x01,0x20,0x01,0x00,0x80,0x00,0xf9,0xfb,
 0xff,0xff,0xbf,0xff,0xff,0xb7,0xfd,0x7e,0x6b,0xab,0xda,0x5a,0xed,0xdf,0xdb,
 0x6f,0xeb,0x3f,0x20,0x00,0x04,0x02,0x00,0x00,0x00,0x02,0x00,0x40,0x00,0x80,
 0x48,0x10,0x01,0x10,0x10,0x08,0x02,0x00,0x11,0x00,0x04,0xd0,0xff,0x7f,0xff,
 0xff,0xff,0xff,0xff,0xd6,0xdb,0xff,0x55,0xab,0xf6,0xff,0xfe,0x7f,0xfb,0xfd,
 0x0f,0x00,0x04,0x00,0x00,0x00,0x10,0x10,0x00,0x40,0x08,0x00,0x10,0x00,0x00,
 0x00,0x00,0x00,0x00,0x00,0x10,0x00,0x12,0x00,0xe8,0xed,0xff,0xff,0xdf,0xff,
 0xff,0xff,0x7b,0x7f,0x5b,0x5b,0x6d,0xbb,0xff,0xf7,0xff,0x5e,0x7f,0x1f,0x02,
 0x80,0x00,0x90,0x88,0x00,0x40,0x40,0x00,0x00,0x84,0x00,0x00,0x02,0x00,0x40,
 0x02,0x40,0x00,0x00,0x00,0x00,0x20,0xe8,0xff,0xff,0xff,0xff,0xff,0xff,0x7f,
 0xf7,0xed,0xff,0xaa,0xd5,0xee,0xff,0x6f,0xd7,0xfb,0xd5,0x17,0x40,0x00,0x10,
 0x00,0x00,0x80,0x00,0x08,0x02,0x00,0x00,0x00,0x00,0x20,0x00,0x04,0x40,0x02,
 0x40,0x42,0x40,0x00,0x02,0xf0,0xfb,0xff,0xff,0xdf,0xff,0xff,0xff,0xbd,0xff,
 0x6d,0x57,0xbb,0xfb,0xbb,0xfb,0x7d,0x6f,0xff,0x17,0x00,0x00,0x00,0x02,0x00,
 0x08,0x04,0x00,0x20,0x84,0x00,0x44,0x44,0x00,0x02,0x00,0x00,0x00,0x02,0x00,
 0x02,0x20,0x80,0x68,0xff,0xff,0xff,0xf7,0xff,0xff,0xff,0xef,0xad,0xbf,0xfd,
 0xd6,0xde,0xff,0xdf,0xf7,0xbd,0xed,0x17,0x11,0x12,0x81,0x00,0x21,0x00,0x00,
 0x01,0x00,0x00,0x08,0x00,0x00,0x08,0x00,0x00,0x00,0x20,0x08,0x00,0x00,0x04,
 0x00,0xe0,0xf7,0xff,0xdf,0xff,0xf7,0xff,0xff,0xff,0xff,0xed,0x6b,0xbb,0xfb,
 0xff,0x7f,0x5f,0xef,0x7f,0x17,0x00,0x00,0x00,0x20,0x00,0x02,0x00,0x80,0x80,
 0x10,0x80,0x00,0x00,0x00,0x00,0x10,0x09,0x00,0x00,0x04,0x08,0x00,0x04,0xe8,
 0xfd,0xff,0xff,0xdf,0xff,0xff,0xff,0xbf,0xdb,0xbf,0xf6,0xee,0x7f,0xdf,0xf6,
 0xfd,0xbd,0xda,0x0f,0x00,0x00,0x04,0x00,0x08,0x20,0x08,0x08,0x04,0x00,0x00,
 0x10,0x11,0x81,0x00,0x00,0x00,0x09,0x80,0x80,0x80,0x80,0x10,0xe1,0xff,0xff,
 0xff,0xff,0xff,0xff,0xff,0xff,0xff,0xf6,0x5b,0xbb,0xfd,0xfb,0x7f,0x6f,0xef,
 0xff,0x17,0x04,0x01,0x20,0x00,0x00,0x00,0x81,0x00,0x00,0x00,0x09,0x00,0x00,
 0x00,0x00,0x00,0x00,0x80,0x00,0x00,0x00,0x00,0x00,0xe8,0xfb,0xff,0xff,0xff,
 0xff,0xff,0xff,0xdf,0xb6,0x5f,0xed,0xfd,0xef,0x6f,0xff,0xbd,0xbd,0xb5,0x17,
 0x20,0x48,0x00,0x11,0x81,0x00,0x00,0x00,0x00,0x02,0x80,0x00,0x00,0x08,0x00,
 0x88,0x20,0x00,0x10,0x10,0x00,0x10,0x00,0x60,0xef,0xff,0xff,0xdf,0xff,0xff,
 0xff,0xff,0xff,0xfb,0x5b,0xb7,0xff,0xff,0xdd,0xef,0x6f,0xff,0x97,0x00,0x00,
 0x00,0x00,0x00,0x08,0x00,0x20,0x42,0x20,0x00,0x08,0x42,0x00,0x02,0x00,0x00,
 0x00,0x00,0x00,0x09,0x01,0x00,0xe8,0xff,0xff,0xff,0xff,0xff,0xff,0xff,0xff,
 0xdb,0x6e,0xff,0xff,0xfd,0xf7,0xff,0xbb,0xfd,0xed,0x0f,0x00,0x00,0x02,0x00,
 0x10,0x00,0x24,0x02,0x00,0x00,0x20,0x40,0x00,0x40,0x00,0x00,0x04,0x24,0x02,
 0x02,0x00,0x00,0x22,0xe1,0xfb,0xff,0xff,0xef,0xff,0xff,0xff,0xbf,0xfe,0xff,
 0x57,0xed,0xff,0xfe,0xff,0x7f,0x6f,0xbf,0x17,0x04,0x01,0x20,0x42,0x00,0x80,
 0x00,0x00,0x10,0x00,0x04,0x00,0x00,0x04,0x00,0x10,0x40,0x00,0x20,0x20,0x40,
 0x10,0x00,0xd0,0xef,0xff,0xff,0xff,0xff,0xff,0xff,0xff,0xb7,0xdd,0xfe,0x7f,
 0xf7,0xff,0xff,0xf7,0xf5,0xfd,0x07,0x00,0x88,0x00,0x00,0x02,0x01,0x00,0x80,
 0x00,0x11,0x00,0x02,0x08,0x00,0x00,0x00,0x00,0x00,0x00,0x00,0x00,0x00,0x00,
 0xe0,0xfb,0xff,0xff,0xff,0xff,0xff,0xff,0xff,0xff,0xf7,0xdb,0xff,0xff,0xff,
 0xff,0x5e,0x7f,0xd7,0x4d,0x20,0x00,0x00,0x00,0x00,0x20,0x00,0x10,0x00,0x80,
 0x00,0x00,0x80,0x00,0x00,0x84,0x10,0x80,0x00,0x01,0x11,0x84,0x08,0xe0,0xff,
 0xff,0xff,0xbf,0xff,0xff,0xff,0xdf,0x6d,0xdf,0xef,0xf6,0xdf,0xff,0xff,0xfb,
 0xed,0xfd,0x07,0x00,0x00,0x08,0x04,0x10,0x00,0x22,0x01,0x00,0x00,0x10,0x10,
 0x01,0x48,0x00,0x00,0x00,0x11,0x10,0x08,0x00,0x00,0x00,0xa9,0xf7,0xff,0xff,
 0xff,0xff,0xff,0xff,0xff,0xff,0x7d,0xfd,0xdf,0xfd,0xff,0xbf,0x7e,0x5f,0xbf,
 0x17,0x04,0x21,0x80,0x80,0x00,0x08,0x00,0x00,0x48,0x04,0x00,0x01,0x00,0x00,
 0x02,0x00,0x04,0x00,0x00,0x00,0x00,0x00,0x00,0xe0,0xff,0xff,0xff,0xff,0xff,
 0xff,0xff,0x7f,0xb7,0xef,0xbf,0xff,0xff,0xff,0xf7,0xdb,0xfb,0xf5,0x07,0x00,
 0x00,0x01,0x20,0x40,0x00,0x00,0x40,0x00,0x00,0x01,0x00,0x08,0x01,0x00,0x40,
 0x00,0x00,0x04,0x40,0x04,0x11,0x21,0xe0,0xf7,0xff,0xff,0x7f,0xff,0xff,0xff,
 0xff,0xff,0x7f,0xef,0xff,0xaf,0xff,0xdd,0xfe,0x6f,0xff,0x8d,0x00,0x04,0x00,
 0x00,0x04,0x00,0x11,0x08,0x01,0x20,0x00,0x84,0x00,0x00,0x00,0x08,0x00,0x84,
 0x40,0x00,0x20,0x00,0x00,0xe0,0xfd,0xff,0xff,0xff,0xff,0xfb,0xff,0xdf,0x6d,
 0xdd,0xfb,0xbd,0xfd,0xff,0xf7,0x6b,0xfd,0xed,0x07,0x08,0x00,0x08,0x01,0x00,
 0x21,0x80,0x00,0x00,0x01,0x24,0x00,0x20,0x10,0x00,0x00,0x80,0x00,0x00,0x08,
 0x00,0x00,0x04,0xa2,0xdf,0xff,0xff,0xff,0xff,0xff,0xff,0xfe,0xff,0xf7,0xff,
 0xf7,0xf7,0xff,0xbe,0xfe,0x6f,0xbf,0x2f,0x80,0x40,0x00,0x08,0x00,0x00,0x00,
 0x00,0x20,0x00,0x00,0x10,0x00,0x00,0x01,0x00,0x09,0x20,0x00,0x00,0x00,0x00,
 0x00,0xf0,0xf7,0xff,0xff,0xff,0xff,0xff,0xff,0x7f,0xb7,0xbf,0xbf,0xff,0xfe,
 0xff,0xfb,0xdb,0xfe,0xf5,0x03,0x00,0x00,0x40,0x80,0x10,0x08,0x00,0x00,0x04,
 0x80,0x00,0x00,0x01,0x01,0x00,0x00,0x00,0x00,0x10,0x01,0x09,0x92,0x40,0xa0,
 0xff,0xff,0xff,0x7f,0xff,0xff,0xff,0xdf,0xff,0xfd,0xf6,0xbf,0xff,0xdf,0xae,
 0xbe,0x6f,0xff,0x07,0x11,0x08,0x04,0x00,0x00,0x00,0x24,0x48,0x00,0x10,0x00,
 0x01,0x08,0x00,0x00,0x24,0x00,0x01,0x02,0x10,0x00,0x00,0x00,0xa0,0xfb,0xff,
 0xff,0xff,0xff,0xff,0xfe,0xff,0xb7,0xef,0xdf,0xf7,0xfa,0xff,0xfb,0xeb,0xfa,
 0xdb,0x07,0x00,0x00,0x00,0x00,0x84,0x80,0x00,0x01,0x80,0x00,0x08,0x00,0x00,
 0x24,0x00,0x00,0x20,0x08,0x00,0x00,0x40,0x00,0x08,0xc2,0xdf,0xff,0xff,0xff,
 0xff,0xff,0xff,0xff,0xfe,0x7f,0xff,0xbe,0xff,0xbf,0xde,0xfe,0xdf,0xfe,0x17,
 0x00,0x01,0x01,0x44,0x00,0x00,0x00,0x00,0x01,0x00,0x00,0x48,0x40,0x00,0x02,
 0x00,0x02,0x40,0x40,0x00,0x00,0x00,0x00,0xa0,0xff,0xff,0xff,0xdf,0xff,0xff,
 0xff,0xff,0xb7,0xdd,0xbb,0xdb,0xfe,0xf7,0xfb,0x5b,0xfb,0x77,0x03,0x02,0x10,
 0x10,0x00,0x00,0x22,0x00,0x00,0x08,0x42,0x40,0x00,0x00,0x00,0x00,0x00,0x00,
 0x00,0x00,0x08,0x09,0x11,0x41,0xa0,0xef,0xff,0x7f,0xff,0xff,0xff,0xff,0xbf,
 0xff,0xff,0xff,0xff,0xff,0xdf,0xbe,0xf6,0x6f,0xdd,0x4f,0x20,0x00,0x80,0x00,
 0x20,0x00,0x40,0x08,0x00,0x00,0x04,0x00,0x08,0x00,0x00,0x48,0x00,0x01,0x04,
 0x00,0x00,0x00,0x00,0xc0,0xbe,0xff,0xff,0xff,0xff,0xff,0xff,0xff,0xb7,0x5b,
 0xef,0x6a,0xff,0xfd,0xeb,0x5f,0xbd,0xff,0x03,0x00,0x02,0x00,0x88,0x00,0x00,
 0x02,0x00,0x40,0x10,0x00,0x80,0x80,0x44,0x00,0x00,0x20,0x00,0x00,0x21,0x00,
 0x00,0x04,0x84,0xf7,0xff,0xff,0xff,0xfe,0xff,0xff,0xff,0xfe,0xfe,0xbd,0xff,
 0xff,0x6f,0xff,0xf6,0xef,0xdb,0x1e,0x00,0x80,0x04,0x00,0x04,0x08,0x08,0x40,
 0x02,0x00,0x10,0x12,0x00,0x00,0x00,0x00,0x02,0x48,0x20,0x00,0x20,0x04,0x00,
 0xa0,0xff,0xff,0xff,0xff,0xff,0xff,0xff,0xbf,0xef,0xdf,0xff,0xd6,0xff,0xfb,
 0xed,0xbb,0xbd,0xff,0x57,0x84,0x00,0x00,0x01,0x40,0x40,0x80,0x00,0x00,0x02,
 0x01,0x00,0x10,0x00,0x01,0x00,0x00,0x00,0x00,0x00,0x04,0x80,0x80,0x80,0xdf,
 0xff,0xff,0xff,0xff,0xff,0xff,0xff,0x7f,0x7f,0xd5,0xfd,0xff,0x7e,0xbf,0xee,
 0xef,0x6a,0x3d,0x00,0x10,0x20,0x00,0x00,0x00,0x00,0x08,0x20,0x00,0x40,0x00,
 0x02,0x10,0x00,0x44,0x80,0x00,0x01,0x84,0x00,0x00,0x10,0xa0,0xfd,0xff,0xff,
 0xff,0xff,0xff,0xff,0xff,0xf7,0xfd,0x7f,0xb7,0xff,0xef,0xfb,0xbf,0xfa,0xbf,
 0xf7,0x21,0x00,0x00,0x48,0x10,0x02,0x00,0x00,0x00,0x10,0x00,0x00,0x00,0x01,
 0x00,0x00,0x10,0x00,0x10,0x00,0x00,0x22,0x00,0x84,0xdf,0xff,0xff,0xbf,0xff,
 0xff,0xff,0xbf,0xbf,0x5f,0xdb,0xef,0xff,0xfb,0xbe,0xed,0x5f,0xed,0xbf,0x04,
 0x40,0x04,0x00,0x02,0x00,0x44,0x00,0x09,0x00,0x00,0x48,0x00,0x00,0x00,0x00,
 0x00,0x04,0x80,0x20,0x10,0x00,0x02,0x40,0xef,0xff,0xff,0xff,0xff,0xff,0xff,
 0xff,0xfd,0xff,0x6f,0xfd,0x7f,0xdf,0xfb,0xbf,0xfd,0x77,0xed,0x07,0x02,0x80,
 0x00,0x00,0x10,0x00,0x22,0x80,0x80,0x04,0x01,0x08,0x20,0x01,0x10,0x02,0x80,
 0x00,0x00,0x40,0x00,0x40,0x80,0xff,0xff,0xff,0xff,0xff,0xff,0xff,0xff,0xbf,
 0xed,0xfa,0xdf,0xff,0xff,0x6f,0xeb,0xaf,0xdd,0xff,0x56,0x00,0x00,0x00,0x80,
 0x80,0x00,0x00,0x00,0x08,0x00,0x00,0x20,0x02,0x00,0x00,0x20,0x10,0x04,0x04,
 0x02,0x08,0x00,0x90,0xdb,0xff,0xff,0xff,0xff,0xff,0xff,0xbf,0xf7,0xbf,0x6f,
 0xfb,0xff,0x6d,0xff,0xbf,0xf6,0x7f,0xeb,0x3f,0x80,0x08,0x04,0x00,0x00,0x10,
 0x00,0x00,0x00,0x20,0x80,0x00,0x00,0x00,0x40,0x00,0x01,0x00,0x00,0x00,0x40,
 0x04,0x82,0xfe,0xde,0xff,0xff,0xbe,0xff,0xff,0xff,0xdf,0xfe,0xfb,0xde,0xbf,
 0xff,0xb7,0xed,0x7f,0xd5,0x7e,0xed,0x12,0x00,0x40,0x12,0x08,0x00,0x00,0x90,
 0x20,0x00,0x08,0x00,0x08,0x00,0x00,0x08,0x00,0x20,0x40,0x00,0x01,0x00,0x00,
 0xda,0xff,0xff,0xff,0xff,0xff,0xff,0xff,0xfe,0x6f,0xef,0xfb,0xff,0xbf,0xfd,
 0x7f,0xed,0xff,0xdb,0x7f,0x05,0x20,0x00,0x00,0x00,0x81,0x24,0x01,0x00,0x01,
 0x00,0x04,0x40,0x02,0x08,0x00,0x00,0x01,0x02,0x00,0x00,0x40,0x00,0xf4,0xff,
 0xff,0xff,0xff,0xff,0xdf,0xdf,0x7f,0xff,0xbb,0xee,0xff,0xed,0x7f,0xdb,0xbf,
 0x6d,0xf7,0xdb,0x0b,0x02,0x04,0x00,0x02,0x00,0x00,0x00,0x02,0x10,0x21,0x80,
 0x00,0x00,0x00,0x01,0x04,0x00,0x00,0x12,0x00,0x01,0x88,0x88,0xfa,0xff,0xff,
 0xff,0xff,0xff,0xff,0xf7,0x5b,0xef,0xfb,0xff,0xff,0xf7,0xff,0xf6,0xbf,0x5d,
 0xef,0x5f,0x00,0x00,0x20,0x20,0x04,0x00,0x00,0x00,0x00,0x00,0x00,0x00,0x00,
 0x00,0x80,0x20,0x20,0x20,0x00,0x22,0x08,0x00,0x68,0xfe,0xff,0xbf,0xff,0xff,
 0xff,0xff,0x7f,0xff,0xfb,0xde,0x7f,0xff,0xdd,0xb6,0xdf,0xea,0xff,0xfb,0x3d,
 0x00,0x41,0x04,0x00,0x40,0x00,0x22,0x40,0x00,0x00,0x11,0x10,0x00,0x10,0x10,
 0x00,0x02,0x04,0x00,0x00,0x80,0x00,0x00,0xb4,0xff,0xff,0xff,0xff,0xff,0xbf,
 0xef,0xbf,0xae,0xfb,0xff,0xb7,0xff,0xff,0xfe,0xbf,0x55,0xbf,0x7f,0x11,0x00,
 0x00,0x04,0x00,0x22,0x00,0x08,0x42,0x08,0x00,0x01,0x01,0x82,0x00,0x00,0x80,
 0x00,0x40,0x00,0x00,0x20,0x00,0xf8,0xfd,0xff,0xff,0xff,0xff,0xff,0xfe,0xfe,
 0xfb,0xef,0xff,0xff,0xff,0xdd,0xb7,0x76,0xff,0xed,0xf7,0x00,0x10,0x80,0x00,
 0x02,0x00,0x00,0x01,0x00,0x00,0x00,0x00,0x00,0x00,0x00,0x04,0x00,0x80,0x08,
 0x08,0x00,0x04,0x82,0xe0,0xdf,0xff,0xff,0xff,0xff,0xff,0xef,0xb7,0xaf,0xbe,
 0xdf,0xff,0xb6,0x7f,0xff,0xdf,0x6d,0xff,0xff,0x01,0x00,0x01,0x20,0x10,0x00,
 0x08,0x00,0x10,0x00,0x04,0x20,0x00,0x00,0x08,0x80,0x08,0x00,0x00,0x00,0x49,
 0x00,0x00,0x50,0xff,0xff,0xfe,0xff,0xff,0xff,0x7f,0xff,0xfa,0xeb,0xff,0xf7,
 0xff,0xef,0xdb,0xf6,0xff,0xff,0x7f,0x43,0x02,0x10,0x00,0x00,0x08,0x01,0x80,
 0x00,0x84,0x40,0x04,0x00,0x00,0x40,0x00,0x00,0x22,0x00,0x01,0x00,0x00,0x10,
 0x84,0xfe,0xff,0xff,0xff,0xff,0xbf,0xdf,0xdf,0x6f,0xff,0xff,0xff,0x7f,0xfb,
 0xfe,0x5f,0xab,0x7d,0xff,0x01,0x40,0x00,0x02,0x80,0x00,0x00,0x04,0x00,0x00,
 0x00,0x00,0x02,0x20,0x01,0x20,0x40,0x00,0x02,0x20,0x00,0x00,0x01,0x80,0xf6,
 0xff,0xff,0xff,0xff,0xff,0xf7,0x7f,0xdb,0x5b,0xfd,0xff,0xee,0xdf,0xb7,0xf5,
 0xfe,0xef,0xef,0x01,0x00,0x00,0x40,0x04,0x00,0x80,0x00,0x08,0x21,0x00,0x00,
 0x00,0x04,0x00,0x01,0x02,0x00,0x10,0x00,0x80,0x24,0x80,0x00,0xdc,0xff,0xff,
 0xff,0xff,0xff,0xbe,0xfd,0x7d,0xef,0x77,0xdf,0xff,0xff,0xff,0xff,0xfb,0xff,
 0xff,0x09,0x04,0x44,0x00,0x00,0x10,0x04,0x20,0x00,0x00,0x82,0x10,0x00,0x00,
 0x10,0x00,0x00,0x08,0x00,0x04,0x11,0x00,0x00,0x00,0xf0,0xfd,0xff,0xff,0xff,
 0xdf,0xff,0x6f,0xdf,0xfb,0xfd,0xff,0x7f,0xbb,0xdd,0x6e,0x6f,0xff,0xfb,0x81,
 0x00,0x00,0x08,0x20,0x82,0x10,0x00,0x21,0x00,0x10,0x80,0x00,0x00,0x00,0x04,
 0x00,0x80,0x80,0x00,0x00,0x00,0x04,0x48,0xd4,0xbf,0xff,0xff,0xff,0xff,0xef,
 0xff,0x75,0xad,0xd7,0xff,0xf7,0xff,0xff,0xfb,0xfd,0xbf,0xbf,0x01,0x20,0x00,
 0x00,0x01,0x00,0x00,0x01,0x00,0x04,0x00,0x00,0x00,0x40,0x04,0x00,0x21,0x01,
 0x00,0x00,0x00,0x00,0x40,0x00,0x60,0xff,0xff,0xff,0xff,0xff,0xff,0x7e,0xdf,
 0xff,0xfd,0xfb,0xff,0xff,0x6e,0xbf,0xf7,0xf7,0xff,0x03,0x80,0x08,0x01,0x00,
 0x00,0x00,0x08,0x00,0x80,0x00,0x04,0x00,0x00,0x40,0x10,0x00,0x20,0x04,0x10,
 0x42,0x44,0x00,0x02,0x80,0xf6,0xfd,0xff,0xff,0x7f,0xdf,0xdf,0x7d,0x5b,0xb7,
 0xfe,0xfe,0xed,0xff,0xf7,0xbe,0xff,0xef,0x10,0x02,0x00,0x20,0x08,0x08,0x00,
 0x00,0x84,0x00,0x40,0x00,0x01,0x08,0x00,0x00,0x08,0x00,0x20,0x00,0x00,0x00,
 0x04,0x00,0x81,0xfe,0xff,0xff,0xff,0xff,0x7f,0xff,0xdf,0xf7,0xef,0xef,0xbf,
 0xff,0xf7,0xdd,0xff,0xff,0xfd,0x01,0x00,0x00,0x00,0x00,0x41,0x44,0x80,0x00,
 0x20,0x08,0x20,0x00,0x80,0x00,0x02,0x00,0x02,0x00,0x41,0x00,0x00,0x00,0x00,
 0x08,0xb8,0xff,0xff,0xff,0xff,0xfe,0x5f,0x75,0x5d,0xbd,0xfd,0xff,0xbf,0xdf,
 0xff,0xf6,0xdd,0x7f,0x80,0x00,0x10,0x02,0x01,0x00,0x00,0x00,0x20,0x00,0x00,
 0x00,0x00,0x00,0x20,0x00,0x41,0x80,0x00,0x00,0x10,0x21,0x80,0x20,0x00,0xea,
 0xff,0xff,0xff,0xff,0xdf,0xfe,0xdf,0xff,0x6f,0xef,0xff,0xff,0x7d,0xf7,0xff,
 0xff,0x7f,0x04,0x20,0x02,0x00,0x40,0x00,0x00,0x12,0x00,0x04,0x02,0x04,0x00,
 0x08,0x02,0x10,0x00,0x10,0x08,0x08,0x00,0x00,0x11,0x00,0x00,0xf0,0xbd,0xff,
 0xff,0xbf,0xf7,0xbf,0x7d,0x6b,0xfb,0xbd,0xff,0xfb,0xff,0xdf,0xbf,0xff,0x77,
 0x00,0x08,0x40,0x08,0x00,0x08,0x21,0x00,0x02,0x00,0x20,0x40,0x02,0x00,0x80,
 0x00,0x00,0x00,0x00,0x00,0x04,0x04,0x00,0x08,0x21,0x40,0xff,0xff,0xff,0xff,
 0x7f,0xff,0xd7,0xff,0xbe,0xf7,0xed,0xff,0xef,0xfd,0xfd,0xf7,0xfe,0x40,0x00,
 0x00,0x40,0x08,0x00,0x00,0x00,0x80,0x40,0x80,0x00,0x00,0x40,0x00,0x00,0x02,
 0x01,0x40,0x40,0x00,0x00,0x00,0x00,0x00,0x92,0xfe,0xff,0xff,0xff,0xfe,0x5b,
 0x7f,0xed,0xeb,0x7e,0x79,0xdf,0xff,0xef,0xff,0xff,0x5f,0x00,0x00,0x01,0x00,
 0x80,0x00,0x08,0x20,0x00,0x00,0x00,0x00,0x00,0x02,0x08,0x44,0x20,0x00,0x04,
 0x04,0x80,0x20,0x04,0x01,0x04,0x80,0xee,0xff,0xff,0xff,0x5f,0xff,0xd5,0xbb,
 0xfe,0x5f,0xe1,0xff,0x7b,0x7f,0xef,0xbe,0x7f,0x08,0x02,0x10,0x02,0x01,0x80,
 0x00,0x04,0x10,0x10,0x08,0x10,0x00,0x00,0x00,0x00,0x00,0x48,0x00,0x00,0x08,
 0x00,0x20,0x20,0x80,0x00,0x78,0xff,0xff,0xbf,0xff,0xff,0x7f,0xef,0x5b,0x37,
 0xc8,0xff,0xff,0xfb,0xff,0xff,0x1b,0x00,0x10,0x00,0x00,0x10,0x04,0x80,0x80,
 0x00,0x01,0x01,0x82,0x00,0x20,0x80,0x00,0x00,0x00,0x20,0x00,0x01,0x00,0x00,
 0x00,0x00,0x00,0xfa,0xff,0xff,0xff,0xff,0xbf,0xda,0xfb,0xf6,0x1f,0x00,0xff,
 0xef,0xdf,0xff,0xf7,0x1f,0x40,0x00,0x40,0x10,0x00,0x10,0x00,0x00,0x02,0x00,
 0x00,0x00,0x00,0x00,0x01,0x10,0x89,0x00,0x00,0x11,0x00,0x11,0x01,0x04,0x10,
 0x10,0xe0,0xdd,0xff,0xff,0xae,0xff,0xef,0xae,0xdf,0x85,0x40,0xec,0xff,0xfe,
 0xbd,0xff,0x1f,0x01,0x80,0x00,0x00,0x80,0x00,0x09,0x00,0x20,0x20,0x20,0x00,
 0x00,0x00,0x10,0x00,0x00,0x00,0x04,0x00,0x20,0x00,0x00,0x00,0x02,0x00,0x40,
 0xff,0xff,0xff,0xff,0x7e,0xbb,0xfb,0x76,0x17,0x00,0xfa,0xfe,0xff,0xff,0xff,
 0x16,0x00,0x04,0x08,0x02,0x09,0x00,0x00,0x10,0x00,0x04,0x00,0x10,0x02,0x04,
 0x00,0x01,0x00,0x44,0x00,0x00,0x00,0x00,0x48,0x20,0x80,0x00,0xa0,0xfe,0xff,
 0x7f,0xff,0xdf,0xfd,0xee,0x7f,0x00,0x04,0xf0,0xff,0x77,0xef,0xef,0x07,0x04,
 0x20,0x00,0x00,0x00,0x00,0x40,0x00,0x00,0x00,0x81,0x00,0x00,0x80,0x00,0x00,
 0x20,0x00,0x20,0x84,0x04,0x84,0x00,0x00,0x00,0x44,0x82,0xf6,0xff,0xff,0x5f,
 0x7f,0xaf,0x7f,0x7d,0x01,0x20,0xc8,0xbf,0xff,0xff,0xfd,0x45,0x80,0x00,0x00,
 0x20,0x00,0x88,0x00,0x04,0x11,0x00,0x08,0x40,0x00,0x00,0x04,0x24,0x01,0x00,
 0x00,0x00,0x00,0x00,0x00,0x02,0x04,0x00,0x00,0xb8,0xfb,0xff,0xff,0xff,0xfd,
 0xda,0x17,0x40,0x00,0x20,0xff,0xff,0xff,0xff,0x01,0x20,0x00,0x21,0x00,0x10,
 0x01,0x04,0x00,0x80,0x10,0x00,0x04,0x00,0x10,0x40,0x00,0x00,0x44,0x04,0x10,
 0x80,0x00,0x02,0x80,0x20,0x00,0x00,0xfa,0xff,0xff,0xf6,0xbd,0xb7,0xf7,0x5f,
 0x08,0x00,0x81,0xfa,0xbf,0xf7,0x7f,0x03,0x00,0x08,0x00,0x04,0x02,0x00,0x00,
 0x20,0x00,0x00,0x00,0x00,0x00,0x00,0x00,0x00,0x88,0x00,0x40,0x00,0x08,0x08,
 0x10,0x08,0x00,0x10,0x04,0xe0,0xfe,0xff,0xdf,0xff,0xde,0xbf,0x01,0x00,0x02,
 0x00,0xfa,0xfd,0xbf,0x77,0x80,0x04,0x00,0x08,0x00,0x00,0x40,0x20,0x01,0x02,
 0x84,0x90,0x00,0x01,0x00,0x02,0x00,0x00,0x00,0x00,0x00,0x01,0x20,0x80,0x00,
 0x00,0x02,0x00,0xa0,0xff,0x7f,0x7f,0xbf,0x77,0xed,0x0b,0x00,0x00,0x04,0xf8,
 0xff,0xfe,0x7f,0x11,0x00,0x80,0x00,0x81,0x40,0x00,0x00,0x00,0x40,0x00,0x00,
 0x00,0x00,0x44,0x10,0x89,0x00,0x10,0x02,0x01,0x80,0x00,0x00,0x00,0x02,0x80,
 0x20,0x80,0xde,0xff,0xff,0xff,0xfe,0x7f,0x80,0x20,0x10,0x40,0xc0,0xff,0xff,
 0xbe,0x00,0x40,0x02,0x00,0x08,0x00,0x02,0x02,0x10,0x00,0x00,0x04,0x24,0x00,
 0x00,0x00,0x00,0x20,0x00,0x10,0x20,0x00,0x00,0x04,0x40,0x40,0x00,0x00,0x04,
 0xfb,0xff,0xdf,0xbe,0xab,0x76,0x00,0x04,0x00,0x00,0x50,0xdf,0xef,0x5f,0x00,
 0x00,0x10,0x20,0x00,0x08,0x20,0x00,0x80,0x08,0x20,0x00,0x00,0x00,0x00,0x00,
 0x00,0x04,0x01,0x00,0x00,0x12,0x80,0x00,0x01,0x00,0x08,0x04,0x20,0xfc,0x7e,
 0xff,0xff,0xfe,0x1f,0x00,0x00,0x41,0x00,0x82,0xfe,0xff,0x17,0x40,0x04,0x00,
 0x01,0x00,0x00,0x00,0x90,0x00,0x80,0x00,0x40,0x00,0x01,0x00,0x42,0x40,0x00,
 0x80,0x00,0x08,0x00,0x08,0x20,0x08,0x08,0x01,0x80,0x00,0xd0,0xff,0x7f,0xbf,
 0x6f,0x55,0x24,0x00,0x00,0x24,0x00,0xfa,0x7d,0x1f,0x08,0x00,0x00,0x00,0x21,
 0x41,0x04,0x00,0x04,0x00,0x04,0x01,0x00,0x00,0x24,0x00,0x02,0x00,0x08,0x40,
 0x00,0x80,0x00,0x00,0x00,0x00,0x40,0x00,0x00,0xe4,0xff,0xee,0xfb,0xfa,0x01,
 0x00,0x10,0x04,0x00,0x00,0xea,0xff,0x01,0x00,0x20,0x00,0x08,0x00,0x00,0x40,
 0x02,0x00,0x02,0x00,0x08,0x22,0x00,0x00,0x00,0x00,0x40,0x00,0x08,0x01,0x01,
 0x20,0x00,0x00,0x01,0x00,0x10,0x08,0xd0,0xf6,0x7f,0xbf,0xff,0x05,0x00,0x02,
 0x00,0x00,0x10,0xe8,0xef,0x03,0x01,0x02,0x92,0x00,0x00,0x08,0x00,0x00,0x40,
 0x20,0x20,0x00,0x00,0x00,0x00,0x04,0x10,0x01,0x00,0x01,0x10,0x08,0x00,0x81,
 0x10,0x10,0x04,0x02,0x40,0x80,0xbf,0xff,0xff,0x2e,0x80,0x00,0x80,0x20,0x81,
 0x00,0x80,0x3f,0x00,0x20,0x00,0x00,0x00,0x02,0x00,0x01,0x10,0x00,0x00,0x00,
 0x00,0x00,0x01,0x00,0x10,0x01,0x08,0x22,0x00,0x00,0x00,0x02,0x10,0x00,0x80,
 0x00,0x00,0x01,0x00,0xfc,0xde,0xbe,0x7f,0x11,0x90,0x00,0x00,0x10,0x80,0xa0,
 0x7b,0x41,0x00,0x20,0x00,0x40,0x20,0x01,0x20,0x00,0x09,0x00,0x04,0x82,0x08,
 0x00,0x48,0x00,0x00,0x00,0x00,0x00,0x00,0x40,0x00,0x00,0x04,0x02,0x20,0x00,
 0x00,0x42,0xfa,0xff,0xff,0x0b,0x00,0x00,0x08,0x08,0x00,0x04,0x00,0x00,0x10,
 0x04,0x00,0x00,0x01,0x00,0x20,0x00,0x01,0x00,0x11,0x01,0x10,0x00,0x00,0x00,
 0x00,0x40,0x40,0x00,0x40,0x44,0x02,0x20,0x02,0x40,0x00,0x00,0x20,0x20,0x00,
 0xd0,0x7f,0xff,0x2e,0x00,0x02,0x00,0x00,0x00,0x00,0x00,0x04,0x00,0x00,0x04,
 0x22,0x10,0x00,0x00,0x04,0x00,0x00,0x00,0x40,0x00,0x80,0x00,0x00,0x40,0x04,
 0x00,0x08,0x09,0x00,0x00,0x00,0x20,0x00,0x00,0x02,0x01,0x02,0x10,0x74,0xdf,
 0xef,0x01,0x01,0x00,0x20,0x81,0x40,0x40,0x04,0x00,0x00,0x20,0x00,0x00,0x00,
 0x09,0x04,0x00,0x88,0x10,0x00,0x00,0x00,0x02,0x04,0x00,0x09,0x00,0x04,0x00,
 0x00,0x00,0x10,0x04,0x00,0x01,0x40,0x00,0x00,0x80,0x00,0xc0,0xff,0xbe,0x02,
 0x40,0x40,0x02,0x00,0x08,0x00,0x80,0x40,0x04,0x02,0x81,0x00,0x00,0x80,0x00,
 0x40,0x00,0x80,0x20,0x00,0x04,0x10,0x00,0x04,0x00,0x00,0x80,0x40,0x00,0x01,
 0x00,0x80,0x00,0x10,0x02,0x10,0x08,0x00,0x00,0x81,0xbe,0x7f,0x01,0x08,0x04,
 0x00,0x10,0x00,0x02,0x00,0x00,0x40,0x00,0x10,0x88,0x04,0x00,0x20,0x01,0x00,
 0x00,0x04,0x09,0x20,0x00,0x00,0x20,0x00,0x88,0x10,0x00,0x00,0x20,0x82,0x00,
 0x08,0x00,0x08,0x80,0x80,0x08,0x08,0x80,0xff,0x7f,0x40,0x00,0x00,0x00,0x00,
 0x00,0x10,0x11,0x08,0x00,0x00,0x00,0x00,0x80,0x00,0x00,0x08,0x22,0x04,0x00,
 0x80,0x00,0x80,0x00,0x00,0x20,0x00,0x00,0x02,0x44,0x00,0x00,0x08,0x00,0x00,
 0x00,0x01,0x00,0x00,0x00,0x90,0xde,0x5e,0x00,0x00,0x00,0x24,0x81,0x10,0x00,
 0x00,0x80,0x10,0x08,0x00,0x00,0x00,0x04,0x02,0x00,0x00,0x00,0x00,0x00,0x00,
 0x01,0x00,0x00,0x04,0x01,0x00,0x10,0x00,0x08,0x10,0x00,0x00,0x89,0x00,0x00,
 0x04,0x00,0x41,0x80,0xfa,0x3f,0x08,0x04,0x91,0x00,0x00,0x00,0x01,0x00,0x01,
 0x00,0x00,0x09,0x22,0x10,0x40,0x00,0x40,0x80,0x20,0x01,0x00,0x10,0x00,0x00,
 0x80,0x00,0x10,0x01,0x80,0x00,0x80,0x00,0x41,0x44,0x00,0x20,0x08,0x20,0x22,
 0x00,0x02,0xde,0x4b,0x00,0x20,0x00,0x00,0x08,0x04,0x40,0x08,0x20,0x00,0x41,
 0x40,0x00,0x02,0x00,0x10,0x00,0x08,0x00,0x48,0x44,0x04,0x08,0x01,0x10,0x00,
 0x00,0x90,0x00,0x10,0x00,0x00,0x00,0x00,0x00,0x00,0x40,0x00,0x00,0x08,0x00,
 0xf0,0x3e,0x00,0x01,0x00,0x00,0x00,0x00,0x08,0x00,0x00,0x08,0x00,0x00,0x00,
 0x00,0x01,0x80,0x04,0x00,0x04,0x00,0x00,0x00,0x00,0x00,0x00,0x20,0x00,0x00,
 0x00,0x80,0x00,0x00,0x08,0x00,0x20,0x02,0x01,0x00,0x00,0x00,0x00,0x6d,0x03,
 0x22,0x00,0x00,0x22,0x42,0x40,0x00,0x40,0x04,0x00,0x08,0x00,0x80,0x00,0x08,
 0x01,0x80,0x00,0x00,0x00,0x00,0x40,0x20,0x00,0x04,0x00,0x44,0x00,0x24,0x00,
 0x24,0x92,0x00,0x02,0x00,0x00,0x00,0x08,0x08,0x80,0x20,0xd0,0x05,0x00,0x80,
 0x48,0x00,0x00,0x00,0x00,0x04,0x00,0x82,0x00,0x08,0x11,0x20,0x00,0x00,0x10,
 0x00,0x20,0x02,0x88,0x00,0x02,0x00,0x40,0x02,0x00,0x02,0x00,0x01,0x00,0x00,
 0x00,0x10,0x01,0x08,0x00,0x41,0x40,0x02,0x04,0x00,0x00,0x00,0x04,0x00,0x00,
 0x00,0x09,0x20,0x00,0x20,0x00,0x00,0x00,0x00,0x00,0x40,0x08,0x00,0x24,0x00,
 0x90,0x00,0x08,0x00,0x01,0x00,0x80,0x00,0x80,0x00,0x20,0x00,0x00,0x40,0x00,
 0x44,0x20,0x22,0x00,0x00,0x10,0x00,0x00,0x40,0x08,0x00,0x00,0x84,0x10,0x00,
 0x84,0x00,0x01,0x20,0x00,0x01,0x00,0x04,0x04,0x00,0x01,0x00,0x04,0x00,0x00,
 0x00,0x08,0x00,0x00,0x10,0x10,0x10,0x00,0x08,0x80,0x00,0x01,0x00,0x00,0x00,
 0x00,0x00,0x01,0x00,0x00,0x10,0x01,0x40,0x20,0x02,0x00,0x00,0x40,0x00,0x08,
 0x00,0x00,0x12,0x10,0x42,0x40,0x00,0x00,0x40,0x00,0x81,0x00,0x20,0x00,0x00,
 0x00,0x10,0x00,0x00,0x00,0x44,0x00,0x11,0x20,0x10,0x22,0x00,0x01,0x00,0x10,
 0x10,0x80,0x20,0x02,0x00,0x00,0x02,0x40,0x00,0x02,0x00,0x00,0x00,0x88,0x04,
 0x00,0x00,0x00,0x00,0x00,0x22,0x08,0x00,0x00,0x00,0x04,0x84,0x80,0x00,0x80,
 0x00,0x82,0x00,0x00,0x00,0x00,0x04,0x00,0x00,0x00,0x00,0x84,0x00,0x80,0x00,
 0x00,0x00,0x88,0x00,0x00,0x00,0x08,0x20,0x01,0x00,0x20,0x00,0x00,0x80,0x40,
 0x10,0x00,0x08,0x00,0x00,0x12,0x20,0x44,0x00,0x00,0x00,0x00,0x02,0x04,0x00,
 0x08,0x00,0x02,0x00,0x00,0x00,0x00,0x11,0x88,0x00,0x00,0x00,0x08,0x04,0x40,
 0x00,0x10,0x10,0x08,0x01,0x00,0x20,0x24,0x02,0x01,0x20,0x01,0x04,0x00,0x11,
 0x41,0x80,0x00,0x00,0x00,0x00,0x80,0x20,0x10,0x02,0x00,0x20,0x10,0x40,0x10,
 0x20,0x84,0x80,0x44,0x08,0x00,0x00,0x20,0x44,0x02,0x00,0x80,0x00,0x00,0x04,
 0x80,0x00,0x20,0x00,0x08,0x00,0x00,0x20,0x00,0x08,0x00,0x02,0x00,0x00,0x00,
 0x20,0x80,0x08,0x00,0x00,0x00,0x02,0x00,0x20,0x00,0x00,0x00,0x02,0x00,0x00,
 0x00,0x00,0x00,0x00,0x01,0x00,0x00,0x20,0x80,0x00,0x08,0x22,0x00,0x01,0x00,
 0x00,0x12,0x80,0x00,0x00,0x00,0x02,0x00,0x00,0x00,0x00,0x00,0x12,0x04,0x00,
 0x00,0x10,0x12,0x04,0x00,0x00,0x00,0x80,0x80,0x00,0x80,0x00,0x01,0x08,0x00,
 0x02,0x02,0x20,0x02,0x00,0x00,0x01,0x08,0x00,0x00,0x00,0x00,0x20,0x00,0x80,
 0x00,0x40,0x04,0x04,0x00,0x40,0x10,0x00,0x84,0x10,0x00,0x00,0x09,0x80,0x00,
 0x00,0x00,0x40,0x00,0x00,0x09,0x08,0x10,0x00,0x10,0x40,0x00,0x10,0x40,0x20,
 0x00,0x00,0x11,0x00,0x10,0x00,0x40,0x00,0x01,0x20,0x04,0x12,0x00,0x00,0x08,
 0x80,0x00,0x20,0x02,0x80,0x90,0x00,0x00,0x00,0x00,0x00,0x02,0x40,0x40,0x20,
 0x01,0x00,0x04,0x00,0x00,0x04,0x08,0x00,0x00,0x42,0x00,0x00,0x00,0x02,0x10,
 0x80,0x08,0x00,0x42,0x04,0x08,0x48,0x04,0x00,0x80,0x00,0x04,0x00,0x20,0x40,
 0x00,0x00,0x02,0x00,0x20,0x00,0x40,0x08,0x40,0x10,0x02,0x00,0x00,0x08,0x02,
 0x00,0x00,0x00,0x00,0x01,0x02,0x10,0x00,0x02,0x01,0x00,0x80,0x00,0x00,0x00,
 0x00,0x00,0x00,0x00,0x00,0x80,0x00,0x00,0x20,0x00,0x01,0x01,0x00,0x08,0x20,
 0x00,0x00,0x00,0x08,0x09,0x80,0x00,0x00,0x00,0x04,0x04,0x00,0x00,0x20,0x90,
 0x90,0x00,0x40,0x20,0x01,0x00,0x00,0x08,0x09,0x10,0x00,0x00,0x40,0x22,0x00,
 0x00,0x01,0x00,0x00,0x10,0x00,0x04,0x20,0x00,0x00,0x04,0x80,0x00,0x20,0x02,
 0x02,0x00,0x00,0x02,0x04,0x00,0x00,0x00,0x00,0x40,0x00,0x00,0x01,0x00,0x00,
 0x00,0x00,0x00,0x10,0x20,0x00,0x00,0x01,0x84,0x24,0x02,0x00,0x10,0x21,0x40,
 0x02,0x01,0x00,0x22,0x00,0x01,0x20,0x08,0x00,0x01,0x04,0x02,0x40,0x00,0x21,
 0x00,0x00,0x00,0x80,0x90,0x80,0x20,0x02,0x00,0x08,0x00,0x02,0x48,0x08,0x00,
 0x20,0x01,0x00,0x40,0x00,0x00,0x00,0x00,0x00,0x00,0x01,0x00,0x00,0x20,0x08,
 0x82,0x00,0x00,0x00,0x04,0x40,0x20,0x00,0x00,0x00,0x00,0x10,0x00,0x20,0x20,
 0x20,0x09,0x00,0x08,0x00,0x00,0x00,0x00,0x00,0x00,0x00,0x00,0x10,0x04,0x80,
 0x04,0x02,0x20,0x04,0x10,0x00,0x20,0x08,0x00,0x00,0x08,0x00,0x00,0x00,0x00,
 0x02,0x10,0x00,0x01,0x00,0x20,0x40,0x10,0x08,0x00,0x00,0x04,0x00,0x00,0x00,
 0x02,0x00,0x02,0x10,0x02,0x00,0x12,0x10,0x01,0x82,0x00,0x00,0x00,0x00,0x00,
 0x00,0x20,0x00,0x00,0x00,0x40,0x40,0x84,0x00,0x00,0x40,0x10,0x00,0x10,0x82,
 0x00,0x00,0x02,0x04,0x00,0x80,0x80,0x00,0x42,0x00,0x01,0x01,0x00,0x00,0x02,
 0x40,0x00,0x00,0x00,0x80,0x00,0x00,0x00,0x82,0x00,0x08,0x80,0x20,0x04,0x00,
 0x82,0x88,0x04,0x01,0x08,0x00,0x20,0x12,0x00,0x00,0x48,0x00,0x00,0x00,0x10,
 0x00,0x00,0x12,0x02,0x00,0x44,0x00,0x00,0x10,0x10,0x20,0x40,0x20,0x00,0x40,
 0x00,0x24,0x00,0x00,0x08,0x00,0x00,0x10,0x00,0x08,0x00,0x40,0x00,0x00,0x00,
 0x00,0x00,0x00,0x20,0x00,0x80,0x04,0x02,0x00,0x40,0x00,0x24,0x80,0x90,0x00,
 0x00,0x00,0x10,0x00,0x10,0x08,0x00,0x80,0x00,0x04,0x00,0x04,0x02,0x00,0x00,
 0x00,0x44,0x80,0x20,0x10,0x00,0x01,0x01,0x84,0x00,0x08,0x00,0x00,0x20,0x10,
 0x00,0x01,0x02,0x00,0x00,0x00,0x01,0x04,0x10,0x00,0x02,0x00,0x40,0x00,0x10,
 0x02,0x00,0x00,0x20,0x02,0x01,0x04,0x00,0x00,0x00,0x00,0x00,0x00,0x01,0x00,
 0x00,0x04,0x00,0x01,0x10,0x00,0x00,0x08,0x40,0x08,0x21,0x00,0x80,0x00,0x00,
 0x80,0x00,0x20,0x20,0x00,0x00,0x80,0x00,0x00,0x00,0x04,0x40,0x00,0x00,0x80,
 0x80,0x00,0x00,0x00,0x40,0x00,0x41,0x10,0x80,0x00,0x00,0x90,0x00,0x04,0x00,
 0x00,0x00,0x00,0x80,0x00,0x00,0x01,0x00,0x00,0x04,0x02,0x24,0x08,0x10,0x20,
 0x00,0x00,0x20,0x01,0x02,0x00,0x20,0x08,0x00,0x08,0x40,0x00,0x12,0x04,0x00,
 0x20,0x20,0x00,0x20,0x08,0x00,0x11,0x00,0x08,0x00,0x10,0x20,0x80,0x00,0x24,
 0x02,0x22,0x10,0x00,0x00,0x41,0x08,0x00,0x00,0x00,0x00,0x00,0x04,0x81,0x04,
 0x04,0x10,0x00,0x88,0x00,0x41,0x80,0x00,0x02,0x48,0x00,0x00,0x04,0x00,0x02,
 0x00,0x01,0x00,0x02,0x00,0x04,0x00,0x01,0x80,0x00,0x00,0x48,0x00,0x40,0x00,
 0x00,0x04,0x10,0x00,0x80,0x40,0x20,0x00,0x41,0x02,0x00,0x08,0x00,0x00,0x00,
 0x20,0x00,0x04,0x00,0x10,0x00,0x00,0x00,0x00,0x40,0x00,0x09,0x00,0x12,0x00,
 0x00,0x00,0x00,0x00,0x40,0x00,0x02,0x00,0x09,0x00,0x00,0x00,0x00,0x82,0x20,
 0x00,0x08,0x00,0x00,0x00,0x00,0x00,0x40,0x00,0x00,0x20,0x00,0x40,0x00,0x01,
 0x00,0x00,0x02,0x10,0x80,0x00,0x40,0x00,0x20,0x80,0x00,0x00,0x84,0x20,0x10,
 0x42,0x00,0x04,0x48,0x00,0x08,0x00,0x01,0x00,0x04,0x04,0x00,0x00,0x04,0x00,
 0x02,0x10,0x04,0x11,0x08,0x00,0x20,0x00,0x00,0x42,0x04,0x04,0x20,0x40,0x10,
 0x00,0x82,0x10,0x00,0x08,0x08,0x00,0x00,0x48,0x00,0x00,0x00,0x00,0x00,0x00,
 0x00,0x00,0x00,0x00,0x00,0x80,0x24,0x00,0x40,0x10,0x00,0x40,0x00,0x20,0x02,
 0x00,0x00,0x00,0x04,0x02,0x22,0x01,0x00,0x00,0x00,0x00,0x00,0x00,0x00,0x00,
 0x00,0x44,0x00,0x80,0x00,0x00,0x00,0x20,0x20,0x04,0x41,0x10,0x00,0x00,0x00,
 0x20,0x81,0x20,0x10,0x00,0x80,0x00,0x00,0x08,0x01,0x42,0x00,0x00,0x21,0x00,
 0x81,0x00,0x00,0x00,0x10,0x08,0x10,0x80,0x80,0x08,0x82,0x40,0x00,0x02,0x00,
 0x00,0x01,0x08,0x22,0x00,0x04,0x01,0x00,0x00,0x00,0x02,0x88,0x00,0x01,0x10,
 0x00,0x00,0x00,0x11,0x10,0x00,0x01,0x00,0x00,0x00,0x00,0x00,0x02,0x00,0x20,
 0x80,0x00,0x80,0x00,0x81,0x10,0x04,0x00,0x00,0x04,0x10,0x40,0x00,0x01,0x10,
 0x00,0x00,0x02,0x00,0x00,0x20,0x08,0x02,0x00,0x00,0x20,0x00,0x00,0x04,0x02,
 0x00,0x00,0x00,0x08,0x20,0x10,0x08,0x12,0x20,0x00,0x20,0x10,0x00,0x10,0x00,
 0x00,0x00,0x00,0x00,0x00,0x40,0x10,0x00,0x02,0x00,0x10,0x20,0x00,0x40,0x00,
 0x80,0x00,0x08,0x01,0x00,0x00,0x00,0x00,0x04,0x08,0x00,0x00,0x40,0x44,0x00,
 0x02,0x01,0x00,0x00,0x00,0x80,0x00,0x04,0x00,0x00,0x82,0x00,0x48,0x04,0x20,
 0x00,0x04,0x00,0x02,0x00,0x00,0x00,0x04,0x02,0x00,0x84,0x00,0x84,0x20,0x10,
 0x00,0x00,0x01,0x90,0x00,0x20,0x00,0x00,0x09,0x40,0x08,0x00,0x00,0x00,0x40,
 0x00,0x82,0x40,0x00,0x04,0x00,0x01,0x02,0x00,0x00,0x00,0x00,0x00,0x20,0x00,
 0x41,0x00,0x00,0x41,0x80,0x20,0x00,0x08,0x00,0x08,0x00,0x00,0x80,0x20,0x10,
 0x80,0x00,0x00,0x04,0x80,0x00,0x40,0x00,0x00,0x00,0x12,0x10,0x00,0x02,0x00,
 0x00,0x00,0x40,0x10,0x08,0x20,0x10,0x84,0x00,0x20,0x01,0x01,0x00,0x08,0x80,
 0x04,0x08,0x08,0x00,0x40,0x80,0x00,0x80,0x20,0x00,0x02,0x00,0x00,0x08,0x00,
 0x00,0x00,0x02,0x20,0x00,0x12,0x00,0x11,0x00,0x01,0x00,0x40,0x10,0x04,0x22,
 0x00,0x00,0x40,0x00,0x01,0x00,0x00,0x02,0x10,0x00,0x21,0x00,0x10,0x00,0x00,
 0x00,0x00,0x00,0x00,0x40,0x00,0x00,0x08,0x00,0x02,0x04,0x00,0x04,0x02,0x00,
 0x10,0x04,0x00,0x00,0x01,0x00,0x00,0x80,0x04,0x00,0x00,0x00,0x00,0x08,0x02,
 0x00,0x04,0x80,0x20,0x44,0x00,0x00,0x08,0x00,0x00,0x01,0x20,0x00,0x01,0x84,
 0x04,0x21,0x08,0x02,0x04,0x00,0x00,0x40,0x40,0x00,0x20,0x00,0x40,0x00,0x00,
 0x11,0x00,0x20,0x00,0x01,0x00,0x80,0x08,0x82,0x40,0x00,0x01,0x40,0x02,0x00,
 0x00,0x00,0x00,0x00,0x40,0x00,0x00,0x02,0x00,0x00,0x02,0x80,0x00,0x00,0x00,
 0x00,0x40,0x00,0x02,0x21,0x00,0x00,0x84,0x00,0x00};
